<?xml version="1.0" encoding="UTF-8"?>
<map version="1.10" orientation="orthogonal" renderorder="right-down" width="64" height="64" tilewidth="64" tileheight="32" infinite="0" nextlayerid="2" nextobjectid="1">
 <tileset firstgid="1" name="terreno_mundo" tilewidth="128" tileheight="64" tilecount="76" columns="8">
  <image source="../textures/terreno_mundo.png" width="1024" height="640"/>
  <tile id="13">
   <properties>
    <property name="collision" type="bool" value="true"/>
   </properties>
  </tile>
  <tile id="30">
   <properties>
    <property name="collision" type="bool" value="true"/>
   </properties>
  </tile>
  <tile id="35">
   <properties>
    <property name="collision" type="bool" value="true"/>
   </properties>
  </tile>
  <tile id="41">
   <properties>
    <property name="collision" type="bool" value="true"/>
   </properties>
  </tile>
  <tile id="46">
   <properties>
    <property name="collision" type="bool" value="true"/>
   </properties>
  </tile>
  <tile id="47">
   <properties>
    <property name="collision" type="bool" value="true"/>
   </properties>
  </tile>
  <tile id="48">
   <properties>
    <property name="collision" type="bool" value="true"/>
   </properties>
  </tile>
  <tile id="49">
   <properties>
    <property name="collision" type="bool" value="true"/>
   </properties>
  </tile>
  <tile id="50">
   <properties>
    <property name="collision" type="bool" value="true"/>
   </properties>
  </tile>
  <tile id="51">
   <properties>
    <property name="collision" type="bool" value="true"/>
   </properties>
  </tile>
  <tile id="52">
   <properties>
    <property name="collision" type="bool" value="true"/>
   </properties>
  </tile>
  <tile id="53">
   <properties>
    <property name="collision" type="bool" value="true"/>
   </properties>
  </tile>
  <tile id="54">
   <properties>
    <property name="collision" type="bool" value="true"/>
   </properties>
  </tile>
  <tile id="55">
   <properties>
    <property name="collision" type="bool" value="true"/>
   </properties>
  </tile>
  <tile id="56">
   <properties>
    <property name="collision" type="bool" value="true"/>
   </properties>
  </tile>
  <tile id="57">
   <properties>
    <property name="collision" type="bool" value="true"/>
   </properties>
  </tile>
  <tile id="58">
   <properties>
    <property name="collision" type="bool" value="true"/>
   </properties>
  </tile>
  <tile id="59">
   <properties>
    <property name="collision" type="bool" value="true"/>
   </properties>
  </tile>
  <tile id="64">
   <properties>
    <property name="collision" type="bool" value="true"/>
   </properties>
  </tile>
  <tile id="65">
   <properties>
    <property name="collision" type="bool" value="true"/>
   </properties>
  </tile>
  <tile id="66">
   <properties>
    <property name="collision" type="bool" value="true"/>
   </properties>
  </tile>
  <tile id="68">
   <properties>
    <property name="collision" type="bool" value="true"/>
   </properties>
  </tile>
  <tile id="72">
   <properties>
    <property name="collision" type="bool" value="true"/>
   </properties>
  </tile>
 </tileset>
 <layer id="1" name="suelo" width="64" height="64">
  <data encoding="csv">
42,42,42,42,42,42,42,42,42,42,42,42,42,42,42,42,42,42,42,42,42,42,42,42,42,42,42,42,42,42,42,42,18,42,42,42,42,42,42,42,42,42,42,42,42,42,42,42,42,42,42,42,42,42,42,42,42,42,42,42,42,42,42,42,
42,17,17,17,17,17,17,17,17,17,17,17,17,17,17,17,17,17,17,17,17,17,17,17,17,17,17,17,17,17,25,17,17,25,17,17,17,17,17,17,17,17,17,17,17,17,17,17,17,17,17,17,17,17,17,17,17,17,17,17,17,17,17,42,
42,17,47,47,47,47,47,47,47,47,47,47,47,47,17,17,17,51,51,51,51,51,51,51,51,51,51,17,17,17,25,17,17,25,17,17,49,49,49,49,49,49,49,49,49,49,17,17,17,50,50,50,50,50,50,50,50,50,50,50,50,17,17,42,
42,17,47,47,47,47,47,47,47,47,47,47,47,47,17,17,17,51,51,51,51,51,51,51,51,51,51,17,17,17,25,17,17,25,17,17,49,49,49,49,49,49,49,49,49,49,17,17,17,50,50,50,50,50,50,50,50,50,50,50,50,17,17,42,
42,17,47,47,47,47,47,47,47,47,47,47,47,47,17,17,17,51,51,51,51,51,51,51,51,51,51,17,17,17,25,17,17,25,17,17,49,49,49,49,49,49,49,49,49,49,17,17,17,50,50,50,50,50,50,50,50,50,50,50,50,17,17,42,
42,17,47,47,47,47,47,47,47,47,47,47,47,47,17,17,17,51,51,51,51,51,51,51,51,51,51,17,17,17,25,17,17,25,17,17,49,49,49,49,49,49,49,49,49,49,17,17,17,50,50,50,50,50,50,50,50,50,50,50,50,17,17,42,
42,17,47,47,47,47,47,47,47,47,47,47,47,47,17,17,17,51,51,51,51,51,51,51,51,51,51,17,17,17,25,17,17,25,17,17,49,49,49,49,49,49,49,49,49,49,17,17,17,50,50,50,50,50,50,50,50,50,50,50,50,17,17,42,
42,17,47,47,47,47,47,47,47,47,47,47,47,47,17,17,17,51,51,51,51,51,51,51,51,51,51,17,17,17,25,17,17,25,17,17,49,49,49,49,49,49,49,49,49,49,17,17,17,50,50,50,50,50,50,50,50,50,50,50,50,17,17,42,
42,17,47,47,47,47,47,47,47,47,47,47,47,47,17,17,17,51,51,51,51,51,51,51,51,51,51,17,17,17,25,17,17,25,17,17,49,49,49,49,49,49,49,49,49,49,17,17,17,50,50,50,50,50,50,50,50,50,50,50,50,17,17,42,
42,17,47,47,47,47,47,47,47,47,47,47,47,47,17,17,17,51,51,51,51,51,51,51,51,51,51,17,17,17,25,17,17,25,17,17,49,49,49,49,49,49,49,49,49,49,17,17,17,50,50,50,50,50,50,50,50,50,50,50,50,17,17,42,
42,17,47,47,47,47,47,47,18,47,47,47,47,47,17,17,17,51,51,51,51,51,18,51,51,51,51,17,17,17,25,17,17,25,17,17,49,49,49,49,49,18,49,49,49,49,17,17,17,50,50,50,50,50,50,18,50,50,50,50,50,17,17,42,
42,17,17,17,17,17,17,17,17,17,17,17,17,17,17,17,17,17,17,17,17,17,17,17,17,17,17,17,17,17,25,17,17,25,17,17,17,17,17,17,17,17,17,17,17,17,17,17,17,17,17,17,17,17,17,17,17,17,17,17,17,17,17,42,
42,25,25,25,25,25,25,25,25,25,25,25,25,25,25,25,25,25,25,25,25,25,25,25,25,25,25,25,25,25,25,25,25,25,25,25,25,25,25,25,25,25,25,25,25,25,25,25,25,25,25,25,25,25,25,25,25,25,25,25,25,25,25,42,
42,17,17,17,17,17,17,17,17,17,17,17,17,17,17,17,17,17,17,17,17,17,17,17,17,17,17,17,17,17,17,17,17,17,17,17,17,17,17,17,17,17,17,17,17,17,17,17,17,17,17,17,17,17,17,17,17,17,17,17,17,17,17,42,
42,25,25,25,25,25,25,25,25,25,25,25,25,25,25,25,25,25,25,25,25,25,25,25,25,25,25,25,25,25,25,25,25,25,25,25,25,25,25,25,25,25,25,25,25,25,25,25,25,25,25,25,25,25,25,25,25,25,25,25,25,25,25,42,
42,17,17,17,17,17,17,17,17,34,34,34,34,34,17,17,17,17,17,17,17,17,17,17,17,17,17,17,17,17,25,17,17,25,17,17,17,17,17,34,34,34,34,17,34,34,34,34,17,34,34,34,34,17,17,17,17,17,17,17,17,17,17,42,
42,17,65,65,65,65,65,17,66,66,66,66,17,17,65,65,65,65,65,17,17,65,65,65,65,17,66,66,66,66,25,17,66,66,66,66,17,17,66,66,66,17,17,65,65,65,17,17,66,66,66,17,17,66,66,66,66,17,17,17,17,17,17,42,
42,17,65,65,65,65,65,17,66,66,66,66,17,17,65,65,65,65,65,17,17,65,65,65,65,17,66,66,66,66,25,17,66,66,66,66,17,17,66,66,66,17,17,65,65,65,17,17,66,66,66,17,17,66,66,66,66,17,17,17,17,17,17,42,
42,17,65,65,65,65,65,17,66,66,66,66,17,17,65,65,65,65,65,17,17,65,65,65,65,17,66,66,66,66,25,17,66,66,66,66,17,17,66,66,66,17,17,65,65,65,17,17,66,66,66,17,17,66,66,66,66,17,17,17,17,17,17,42,
42,17,65,65,65,65,65,17,17,17,17,17,17,17,17,17,17,17,17,17,17,65,65,65,65,17,66,66,66,66,25,17,66,66,66,66,17,17,17,17,17,17,17,65,65,65,17,17,17,17,17,17,17,66,66,66,66,17,17,17,17,17,17,42,
42,25,25,25,25,25,25,25,25,25,25,25,25,25,25,25,25,25,25,25,25,25,25,25,25,25,25,25,25,25,25,25,25,25,25,25,25,25,25,25,25,25,25,25,25,25,25,25,25,25,25,25,25,25,25,25,25,25,25,25,25,25,25,42,
42,17,17,34,34,34,34,34,34,17,17,17,17,17,17,17,17,34,34,34,34,34,17,17,17,17,17,17,17,17,25,34,34,34,34,34,34,17,17,17,17,17,17,17,34,34,34,34,17,34,34,34,34,34,34,34,17,17,17,17,17,17,17,42,
42,17,65,65,56,56,56,56,56,56,56,56,65,65,17,17,57,57,57,57,57,57,57,57,65,65,65,65,17,17,65,65,65,65,65,17,17,65,55,55,55,55,55,55,55,55,17,17,65,65,54,54,54,54,54,54,54,54,54,66,17,17,17,42,
42,17,65,65,56,56,56,56,56,56,56,56,65,65,17,17,57,57,57,57,57,57,57,57,65,65,65,65,17,17,65,65,65,65,65,17,17,65,55,55,55,55,55,55,55,55,17,17,65,65,54,54,54,54,54,54,54,54,54,66,17,17,17,42,
42,17,65,65,56,56,56,56,56,56,56,56,65,65,17,17,57,57,57,57,57,57,57,57,65,65,65,65,17,17,65,65,65,65,65,17,17,65,55,55,55,55,55,55,55,55,17,17,65,65,54,54,54,54,54,54,54,54,54,66,17,17,17,42,
42,17,65,65,56,56,56,56,56,56,56,56,65,65,17,17,57,57,57,57,57,57,57,57,17,17,17,17,17,17,25,17,17,25,17,17,17,17,55,55,55,55,55,55,55,55,17,17,65,65,54,54,54,54,54,54,54,54,54,17,17,17,17,42,
42,25,25,25,56,56,56,56,56,56,56,56,25,25,25,25,57,57,57,57,57,57,57,57,25,25,25,25,25,25,25,25,25,25,25,25,25,25,55,55,55,55,55,55,55,55,25,25,25,25,54,54,54,54,54,54,54,54,54,25,25,25,25,42,
42,17,17,17,56,56,56,56,18,56,56,56,17,17,17,17,57,57,57,57,18,57,57,57,17,17,17,17,17,17,25,17,17,25,17,17,17,17,55,55,55,55,18,55,55,55,17,17,17,17,54,54,54,54,18,54,54,54,54,17,17,17,17,42,
42,17,17,17,17,17,17,17,17,17,17,17,17,17,17,17,17,17,17,17,17,17,17,17,17,17,17,17,17,17,25,17,17,25,17,17,17,17,17,17,17,17,17,17,17,17,17,17,17,17,17,17,17,17,17,17,17,17,17,17,17,17,17,42,
42,25,25,25,25,25,25,25,25,25,25,25,25,25,25,25,25,25,25,25,25,25,25,25,25,25,25,25,25,25,25,25,25,25,25,25,25,25,25,25,25,25,25,25,25,25,25,25,25,25,25,25,25,25,25,25,25,25,25,25,25,25,25,42,
42,17,17,17,17,17,17,17,17,17,17,17,17,17,17,17,17,17,17,17,17,17,17,17,17,17,17,17,17,17,17,17,17,17,17,17,17,17,17,17,17,17,17,17,17,17,17,17,17,17,17,17,17,17,17,17,17,17,17,17,17,17,17,42,
42,17,17,17,17,17,17,17,17,17,17,17,17,17,17,17,17,17,17,17,17,17,17,17,17,17,17,17,17,17,17,17,17,17,17,17,17,17,17,17,17,17,17,17,17,17,17,17,17,17,17,17,17,17,17,17,17,17,17,17,17,17,17,42,
18,25,25,25,25,25,25,25,25,25,25,25,25,25,25,25,25,25,25,25,25,25,25,25,25,25,25,25,25,25,25,25,25,25,25,25,25,25,25,25,25,25,25,25,25,25,25,17,17,17,17,25,25,25,25,25,25,25,25,25,25,25,25,18,
42,17,17,17,17,17,17,17,17,17,17,17,17,17,17,17,17,17,17,17,17,17,17,17,17,17,17,17,17,17,25,17,17,25,17,17,17,17,17,17,17,17,17,17,17,17,17,17,17,17,17,17,17,17,17,17,17,17,17,17,17,17,17,42,
42,17,17,17,17,17,17,17,17,17,17,17,17,17,17,17,17,17,17,17,17,17,17,17,17,17,17,17,17,17,17,17,17,17,17,17,17,17,17,17,17,17,17,17,17,17,17,17,17,17,17,17,17,17,17,17,17,17,17,17,17,17,17,42,
42,17,69,17,57,57,57,57,57,57,57,57,17,69,54,54,54,54,54,54,54,54,69,17,58,58,58,58,58,58,58,58,17,17,17,52,52,52,52,52,52,52,52,69,69,58,58,58,58,58,58,58,58,59,59,59,59,59,59,59,59,69,17,42,
42,17,17,17,57,57,57,57,57,57,57,57,17,17,54,54,54,54,54,54,54,54,17,17,58,58,58,58,58,58,58,58,17,69,17,52,52,52,52,52,52,52,52,69,69,58,58,58,58,58,58,58,58,59,59,59,59,59,59,59,59,69,17,42,
42,17,17,69,57,57,57,57,57,57,57,57,69,69,54,54,54,54,54,54,54,54,17,69,58,58,58,58,58,58,58,58,69,69,17,52,52,52,52,52,52,52,52,69,69,58,58,58,58,58,58,58,58,59,59,59,59,59,59,59,59,69,17,42,
42,17,69,69,57,57,57,57,57,57,57,57,65,65,54,54,54,54,54,54,54,54,69,17,58,58,58,58,58,58,58,58,69,69,17,52,52,52,52,52,52,52,52,69,69,58,58,58,58,58,58,58,58,59,59,59,59,59,59,59,59,69,17,42,
42,17,69,69,57,57,57,57,18,57,57,57,65,65,54,54,54,54,18,54,54,54,29,29,58,58,58,58,18,58,58,58,69,69,69,52,52,52,52,18,52,52,52,29,29,58,58,58,58,18,58,58,58,59,59,59,59,18,59,59,59,69,17,42,
42,17,69,69,69,29,29,29,17,69,17,69,69,69,17,69,69,69,17,69,69,69,29,29,17,69,69,34,34,34,69,17,69,69,69,17,69,69,69,17,34,69,69,29,29,17,17,17,17,17,17,66,66,66,29,29,17,17,65,65,65,69,17,42,
42,17,17,17,17,17,17,69,69,17,34,69,69,69,17,17,69,69,17,69,69,69,69,17,69,69,17,17,69,69,17,17,17,69,17,17,69,69,69,17,17,69,65,65,65,65,17,69,69,17,17,66,66,66,69,69,69,17,65,65,65,69,17,42,
42,17,69,29,29,29,69,69,17,17,17,17,69,69,69,17,17,69,17,17,17,17,17,17,17,17,69,17,69,69,66,17,69,17,17,17,29,29,29,17,69,69,65,65,69,17,69,69,69,17,69,69,69,69,69,69,69,17,65,65,65,69,17,42,
42,17,69,29,29,29,69,69,17,69,69,17,17,17,17,17,17,17,17,17,69,69,69,20,69,20,20,20,69,20,20,17,69,20,20,20,69,20,20,20,69,69,65,65,69,17,17,17,17,17,17,69,69,69,69,69,69,17,17,69,69,69,17,42,
42,17,65,29,29,29,69,69,17,69,69,29,29,69,69,69,17,69,69,69,69,69,69,20,20,20,20,20,20,20,20,20,20,20,20,20,20,20,20,20,69,34,29,29,29,29,48,48,48,48,48,48,17,34,34,17,17,17,17,17,17,17,17,42,
42,17,65,65,65,65,69,69,69,17,17,29,29,69,69,69,17,69,69,69,69,69,69,69,20,17,17,17,17,17,17,17,17,17,17,17,17,17,20,69,17,17,29,29,29,29,48,48,48,48,48,48,17,55,55,55,55,55,55,55,55,55,17,42,
42,17,69,69,54,54,54,54,54,54,54,54,54,69,69,69,17,17,69,69,69,69,69,20,20,17,17,17,17,17,17,17,17,17,17,17,17,17,20,20,17,69,29,29,29,29,48,48,48,48,48,48,17,55,55,55,55,55,55,55,55,55,17,42,
42,17,17,17,54,54,54,54,54,54,54,54,54,69,69,69,69,17,69,69,69,69,69,20,20,17,17,17,17,17,17,17,17,17,17,17,17,17,20,20,17,69,48,48,48,48,48,48,48,48,48,48,17,55,55,55,55,55,55,55,55,55,17,42,
42,17,66,66,54,54,54,54,54,54,54,54,54,17,17,17,69,69,17,17,17,69,69,20,20,17,17,17,17,17,14,14,17,17,17,17,17,17,20,20,17,17,48,48,48,48,48,48,48,48,48,48,17,55,55,55,55,55,55,55,55,55,17,42,
42,17,17,17,54,54,54,54,54,54,54,54,54,17,17,17,17,17,17,17,17,17,17,17,20,17,17,17,17,17,14,14,17,17,17,17,17,17,20,17,17,17,48,48,48,48,48,48,48,48,48,48,17,55,55,55,55,55,55,55,55,55,17,42,
42,17,69,17,54,54,54,54,54,54,54,54,54,69,69,69,69,17,17,17,17,17,17,20,20,17,17,17,17,17,17,17,17,17,17,17,17,17,20,20,17,69,48,48,48,48,48,48,48,48,48,48,65,55,55,55,55,55,55,55,55,55,17,42,
42,17,17,69,54,54,54,54,54,54,54,54,54,65,65,65,69,69,69,69,69,17,69,20,20,17,17,17,17,17,17,17,17,17,17,17,17,17,20,20,17,69,48,48,48,48,48,48,48,48,48,48,65,55,55,55,55,55,55,55,55,55,17,42,
42,17,69,69,54,54,54,54,54,54,54,54,54,65,65,65,69,69,69,69,69,17,69,20,20,17,17,17,17,17,17,17,17,17,17,17,17,17,20,20,17,69,48,48,48,48,48,18,48,48,48,48,65,55,55,55,55,18,55,55,55,55,17,42,
42,17,69,69,54,54,54,54,18,54,54,54,54,69,65,65,69,69,69,69,69,17,69,69,20,17,17,17,17,17,17,17,17,17,17,17,17,17,20,69,17,69,69,69,69,17,17,17,69,69,69,65,65,65,65,69,69,17,17,17,69,69,17,42,
42,17,69,69,66,66,66,66,17,69,65,65,69,69,69,69,69,69,66,66,17,29,29,20,20,20,20,20,20,20,20,20,20,20,20,20,20,20,20,20,34,17,69,69,17,17,69,69,69,69,69,65,65,65,65,69,69,69,69,17,17,69,17,42,
42,17,69,69,69,69,69,69,17,69,69,69,69,69,69,66,66,66,66,66,69,29,29,20,17,20,20,20,69,20,20,17,69,20,20,20,69,20,20,20,69,17,69,69,17,69,69,69,69,69,69,65,65,65,65,69,69,69,69,69,17,17,17,42,
42,17,69,17,69,69,69,69,17,69,69,69,69,69,69,66,66,66,69,69,69,29,29,69,17,69,69,69,17,69,69,17,69,69,69,69,17,69,69,69,69,17,17,17,17,69,69,69,69,69,69,69,69,69,69,69,69,69,69,69,17,69,17,42,
42,17,17,17,34,34,34,34,34,69,69,69,69,69,58,58,58,58,58,58,58,58,69,69,17,69,69,69,17,69,69,17,69,69,69,69,17,66,66,69,69,17,69,17,17,59,59,59,59,59,59,59,59,59,69,69,69,69,69,69,17,69,17,42,
42,17,69,66,66,66,69,69,17,69,69,69,69,69,58,58,58,58,58,58,58,58,69,17,69,69,69,69,17,69,69,17,69,69,69,69,17,66,66,69,69,69,17,17,17,59,59,59,59,59,59,59,59,59,69,69,69,69,69,69,17,17,17,42,
42,17,69,66,66,66,66,66,17,17,17,17,17,34,58,58,58,58,58,58,58,58,69,17,17,69,69,69,17,17,69,17,69,69,69,69,17,69,69,69,69,69,17,17,69,59,59,59,59,59,59,59,59,59,69,65,65,65,69,17,69,69,17,42,
42,17,69,66,66,66,66,66,17,69,69,17,17,69,58,58,58,58,58,58,58,58,17,17,69,17,17,17,17,17,17,17,17,17,17,69,17,69,69,69,69,17,69,69,17,59,59,59,59,59,59,59,59,59,69,65,65,65,69,17,69,69,17,42,
42,17,69,69,69,69,69,17,69,69,69,17,69,69,58,58,58,58,18,58,58,58,17,69,69,17,69,69,69,17,69,17,69,69,69,17,17,69,69,69,69,17,17,69,17,59,59,59,59,18,59,59,59,59,17,17,17,17,17,17,17,17,17,42,
42,17,17,17,17,17,17,17,17,17,17,17,17,17,17,17,17,17,17,17,17,17,17,17,17,17,17,17,17,17,17,17,17,17,17,17,17,17,17,17,17,17,17,17,17,17,17,17,17,17,17,17,17,17,17,17,17,17,17,17,17,17,17,42,
42,42,42,42,42,42,42,42,42,42,42,42,42,42,42,42,42,42,42,42,42,42,42,42,42,42,42,42,42,42,42,42,18,42,42,42,42,42,42,42,42,42,42,42,42,42,42,42,42,42,42,42,42,42,42,42,42,42,42,42,42,42,42,42
  </data>
 </layer>
</map>
