<?xml version="1.0" encoding="UTF-8"?>
<!-- GENERADO por tools/gen_este_norte.py (experimento 4-IAs) — no editar a mano. -->
<map version="1.10" tiledversion="1.10.2" orientation="orthogonal" renderorder="right-down" width="13" height="11" tilewidth="64" tileheight="32" infinite="0" nextlayerid="2" nextobjectid="1">
 <tileset firstgid="1" name="terreno_mundo" tilewidth="128" tileheight="64" tilecount="76" columns="8">
  <image source="../textures/terreno_mundo.png" width="1024" height="640"/>
  <tile id="13">
   <properties>
    <property name="collision" type="bool" value="true"/>
   </properties>
  </tile>
  <tile id="30">
   <properties>
    <property name="collision" type="bool" value="true"/>
   </properties>
  </tile>
  <tile id="35">
   <properties>
    <property name="collision" type="bool" value="true"/>
   </properties>
  </tile>
  <tile id="41">
   <properties>
    <property name="collision" type="bool" value="true"/>
   </properties>
  </tile>
 </tileset>
 <layer id="1" name="suelo" width="13" height="11">
  <data encoding="csv">
42,42,42,42,42,42,42,42,42,42,42,42,42,42,34,34,34,34,34,34,34,34,34,34,34,42,42,34,34,34,34,34,34,34,34,34,34,34,42,42,34,34,20,20,20,20,20,20,20,34,34,42,42,34,34,34,34,34,34,34,34,34,34,34,42,42,34,34,34,34,34,34,34,34,34,34,34,42,42,34,34,34,34,34,34,34,34,34,34,34,42,42,34,34,34,34,34,34,34,34,34,34,34,42,42,34,34,34,34,34,34,34,34,34,34,34,42,42,34,34,34,34,34,34,34,34,34,34,34,42,42,42,42,42,42,42,18,42,42,42,42,42,42
</data>
 </layer>
</map>
