<?xml version="1.0" encoding="UTF-8"?>
<!-- GENERADO por tools/gen_este_norte.py (experimento 4-IAs) — no editar a mano.
     Gongorguma - Aldea XVII. Egaroth, 2000 b.f. (experimento 4-IAs) -->
<map version="1.10" tiledversion="1.10.2" orientation="orthogonal" renderorder="right-down" width="32" height="32" tilewidth="64" tileheight="32" infinite="0" nextlayerid="2" nextobjectid="1">
 <tileset firstgid="1" name="ciudad" tilewidth="16" tileheight="16" tilecount="36" columns="6">
  <image source="../textures/ciudad_tileset.png" width="96" height="96"/>
  <tile id="1">
   <properties>
    <property name="collision" type="bool" value="true"/>
   </properties>
  </tile>
  <tile id="3">
   <properties>
    <property name="collision" type="bool" value="true"/>
   </properties>
  </tile>
  <tile id="6">
   <properties>
    <property name="collision" type="bool" value="true"/>
   </properties>
  </tile>
  <tile id="7">
   <properties>
    <property name="collision" type="bool" value="true"/>
   </properties>
  </tile>
  <tile id="8">
   <properties>
    <property name="collision" type="bool" value="true"/>
   </properties>
  </tile>
  <tile id="9">
   <properties>
    <property name="collision" type="bool" value="true"/>
   </properties>
  </tile>
  <tile id="10">
   <properties>
    <property name="collision" type="bool" value="true"/>
   </properties>
  </tile>
  <tile id="11">
   <properties>
    <property name="collision" type="bool" value="true"/>
   </properties>
  </tile>
  <tile id="12">
   <properties>
    <property name="collision" type="bool" value="true"/>
   </properties>
  </tile>
  <tile id="13">
   <properties>
    <property name="collision" type="bool" value="true"/>
   </properties>
  </tile>
  <tile id="14">
   <properties>
    <property name="collision" type="bool" value="true"/>
   </properties>
  </tile>
  <tile id="15">
   <properties>
    <property name="collision" type="bool" value="true"/>
   </properties>
  </tile>
  <tile id="16">
   <properties>
    <property name="collision" type="bool" value="true"/>
   </properties>
  </tile>
  <tile id="17">
   <properties>
    <property name="collision" type="bool" value="true"/>
   </properties>
  </tile>
  <tile id="18">
   <properties>
    <property name="collision" type="bool" value="true"/>
   </properties>
  </tile>
  <tile id="19">
   <properties>
    <property name="collision" type="bool" value="true"/>
   </properties>
  </tile>
  <tile id="24">
   <properties>
    <property name="collision" type="bool" value="true"/>
   </properties>
  </tile>
  <tile id="25">
   <properties>
    <property name="collision" type="bool" value="true"/>
   </properties>
  </tile>
  <tile id="26">
   <properties>
    <property name="collision" type="bool" value="true"/>
   </properties>
  </tile>
  <tile id="28">
   <properties>
    <property name="collision" type="bool" value="true"/>
   </properties>
  </tile>
  <tile id="32">
   <properties>
    <property name="collision" type="bool" value="true"/>
   </properties>
  </tile>
  <tile id="35">
   <properties>
    <property name="collision" type="bool" value="true"/>
   </properties>
  </tile>
 </tileset>
 <layer id="1" name="suelo" width="32" height="32">
  <data encoding="csv">
2,2,2,2,2,2,2,2,2,2,2,2,2,2,2,2,2,2,2,2,2,2,2,2,2,2,2,2,2,2,2,2,
2,6,6,6,6,6,6,6,6,6,6,6,6,6,6,6,6,6,6,6,6,6,6,6,6,6,6,6,6,6,6,2,
2,6,32,32,32,32,32,32,32,32,32,32,32,32,32,32,32,32,32,32,32,32,32,32,32,32,32,32,32,32,6,2,
2,6,32,32,32,32,32,32,32,32,32,32,32,32,32,32,32,32,32,32,32,32,32,32,32,32,32,32,32,32,6,2,
2,6,32,32,32,32,32,32,32,32,32,32,32,32,32,32,32,32,32,32,32,32,32,32,32,32,32,32,32,32,6,2,
2,6,32,32,33,33,32,32,33,33,32,32,32,32,32,32,32,32,32,32,32,32,32,32,32,32,32,32,32,32,6,2,
2,6,6,6,33,33,6,6,33,33,6,6,6,6,6,6,32,6,6,6,6,6,33,33,6,6,6,6,6,6,6,2,
2,6,6,6,6,6,6,6,33,33,6,6,6,6,6,6,32,6,6,6,6,6,33,33,6,6,6,6,6,6,6,2,
2,6,6,6,6,6,6,6,6,6,6,6,33,33,21,21,21,21,6,6,6,6,33,33,6,6,6,6,6,6,6,2,
2,6,6,6,6,6,6,6,6,6,33,33,33,33,21,21,21,21,6,6,6,6,6,6,6,6,6,6,6,6,6,2,
2,6,6,6,6,6,6,6,6,6,33,33,33,33,21,21,21,21,6,6,6,6,6,6,6,6,6,6,6,6,6,2,
2,6,6,6,6,6,6,6,6,6,33,33,6,6,21,21,21,21,6,6,6,6,6,6,6,6,6,6,6,6,6,2,
2,6,6,6,6,6,6,6,6,6,6,6,6,6,6,6,32,6,6,6,6,6,6,6,6,6,6,6,6,6,6,2,
2,6,6,6,6,6,6,6,6,6,6,6,6,6,6,6,32,6,6,6,6,6,6,6,6,6,6,6,6,6,6,2,
2,6,6,6,6,6,6,6,6,6,6,6,6,6,6,6,32,6,6,6,6,6,6,6,6,6,6,6,6,6,6,2,
2,6,6,6,6,6,6,6,6,6,6,6,6,6,6,6,32,6,6,6,6,6,6,6,6,6,6,6,6,6,6,2,
2,6,6,6,6,6,6,6,6,6,6,6,6,6,6,6,32,6,6,6,6,6,6,6,6,6,6,6,6,6,6,2,
2,6,6,6,6,6,6,6,6,6,6,6,6,6,6,6,32,6,6,6,6,6,6,6,6,6,6,6,6,6,6,2,
2,6,6,6,6,6,6,6,6,6,6,6,6,6,6,6,32,6,6,6,6,6,6,6,6,6,6,6,6,6,6,2,
2,6,6,6,6,6,6,6,6,6,6,6,6,6,6,6,32,6,6,6,6,6,6,6,6,6,6,6,6,6,6,2,
2,6,6,6,6,6,6,6,6,6,6,6,6,6,6,6,32,6,6,6,6,6,6,6,6,6,6,6,6,6,6,2,
2,6,6,6,6,6,6,6,6,6,6,6,6,6,6,6,32,6,6,6,6,6,6,6,6,6,6,6,6,6,6,2,
2,6,6,6,6,6,6,6,6,6,6,6,6,6,6,6,32,6,6,6,6,6,6,6,6,6,6,6,6,6,6,2,
2,6,6,6,6,6,6,6,6,6,6,6,6,6,6,6,32,6,6,6,6,6,6,6,6,6,33,33,6,6,6,2,
2,6,6,6,6,6,6,6,6,6,6,6,6,6,6,6,33,33,33,6,6,6,6,6,6,6,33,33,6,6,6,2,
2,6,6,6,6,6,6,6,6,6,6,6,6,6,6,6,33,33,33,6,6,6,33,33,33,6,33,33,6,6,6,2,
2,6,32,32,32,32,32,32,32,32,32,32,32,32,32,32,32,32,32,32,32,32,33,33,33,32,32,32,32,32,6,2,
2,6,6,6,6,6,6,6,6,6,6,6,6,6,6,6,32,6,6,6,6,6,6,6,6,6,6,6,6,6,6,2,
2,6,6,6,6,6,6,6,6,6,6,6,6,6,6,6,32,6,6,6,6,6,6,6,6,6,6,6,6,6,6,2,
2,6,6,6,6,6,6,6,6,6,6,6,6,6,6,6,32,6,6,6,6,6,6,6,6,6,6,6,6,6,6,2,
2,6,6,6,6,6,6,6,6,6,6,6,6,6,6,6,6,6,6,6,6,6,6,6,6,6,6,6,6,6,6,2,
2,2,2,2,2,2,2,2,2,2,2,2,2,2,2,2,2,2,2,2,2,2,2,2,2,2,2,2,2,2,2,2
</data>
 </layer>
</map>
