<?xml version="1.0" encoding="UTF-8"?>
<map version="1.10" orientation="orthogonal" renderorder="right-down" width="32" height="32" tilewidth="64" tileheight="32" infinite="0" nextlayerid="2" nextobjectid="1">
 <tileset firstgid="1" name="test_checker" tilewidth="8" tileheight="8" tilecount="2" columns="2">
  <image source="../textures/test_checker.png" width="16" height="8"/>
  <tile id="1">
   <properties>
    <property name="collision" type="bool" value="true"/>
   </properties>
  </tile>
 </tileset>
 <layer id="1" name="suelo" width="32" height="32">
  <data encoding="csv">
2,2,2,2,2,2,2,2,2,2,2,2,2,2,2,2,2,2,2,2,2,2,2,2,2,2,2,2,2,2,2,2,
2,6,6,6,6,6,6,6,6,6,6,6,6,6,6,6,6,6,6,6,6,6,6,6,6,6,6,6,6,6,6,2,
2,6,6,6,6,6,6,6,6,6,6,6,6,6,6,6,28,6,6,6,6,6,6,6,6,6,6,6,6,6,6,2,
2,6,6,6,6,6,6,6,6,6,6,6,6,6,6,6,28,6,6,6,6,6,6,6,6,6,6,6,6,6,6,2,
2,6,6,6,6,6,6,6,6,6,6,6,6,6,6,6,28,6,6,6,6,6,6,6,6,6,6,6,6,6,6,2,
2,6,6,6,6,6,6,6,6,6,6,6,6,6,6,6,28,6,6,6,6,6,6,6,6,6,6,6,6,6,6,2,
2,6,6,6,6,6,6,6,6,6,6,6,6,6,6,6,28,6,6,6,6,6,6,6,6,6,6,6,6,6,6,2,
2,6,6,6,6,6,6,6,6,6,6,6,6,6,6,6,28,6,6,6,6,6,6,6,3,3,6,6,6,6,6,2,
2,6,6,6,25,25,25,25,6,6,6,6,6,6,6,6,28,6,6,6,6,6,25,25,25,25,6,6,6,6,6,2,
2,6,6,6,25,25,25,25,6,6,6,6,6,6,6,6,28,6,6,6,6,6,25,25,25,25,6,6,6,6,6,2,
2,6,6,6,25,25,25,25,6,6,30,30,30,6,6,6,28,6,6,6,6,6,25,25,25,25,6,6,6,6,6,2,
2,6,6,6,6,6,6,6,6,6,30,30,30,6,6,6,28,6,6,6,6,6,6,6,6,6,6,6,6,6,6,2,
2,6,6,6,6,6,6,6,6,6,6,6,6,6,6,6,28,6,6,6,6,6,6,6,6,6,6,6,6,6,6,2,
2,6,6,6,6,6,6,6,6,6,6,6,6,5,5,5,5,5,5,6,6,6,6,6,6,6,6,6,6,6,6,2,
2,6,6,6,6,6,6,6,6,6,6,6,6,5,5,5,5,5,5,6,6,6,6,6,6,6,6,6,6,6,6,2,
2,6,6,6,6,6,6,6,6,6,6,6,6,5,5,5,5,5,5,6,6,6,6,6,6,6,6,6,6,6,6,2,
2,6,28,28,28,28,28,28,28,28,28,28,28,5,5,5,5,5,5,28,28,28,28,28,28,28,28,28,28,28,6,2,
2,6,6,6,6,6,6,6,6,6,6,6,6,5,5,5,5,5,5,6,6,6,6,6,6,6,6,6,6,6,6,2,
2,6,6,6,6,6,6,6,6,6,6,6,6,5,5,5,5,5,5,6,6,6,6,6,6,6,6,6,6,6,6,2,
2,6,6,6,6,6,6,6,6,6,6,6,6,6,6,6,28,6,6,6,6,6,6,6,6,6,6,6,6,6,6,2,
2,6,6,6,25,25,25,25,6,6,6,6,6,6,6,6,28,6,6,6,6,6,25,25,25,25,6,6,6,6,6,2,
2,6,6,6,25,25,25,25,6,6,6,6,6,6,6,6,28,6,6,6,6,6,25,25,25,25,6,6,6,6,6,2,
2,6,6,6,25,25,25,25,6,6,6,6,6,6,6,6,28,6,6,6,6,6,25,25,25,25,6,6,6,6,6,2,
2,6,6,6,6,6,6,6,6,6,6,6,6,6,6,6,28,6,6,6,6,6,6,6,6,6,6,6,6,6,6,2,
2,6,6,6,6,6,6,6,6,6,6,6,6,6,6,6,28,6,6,6,6,6,6,6,6,6,6,6,6,6,6,2,
2,6,6,6,6,6,6,6,6,6,6,6,6,6,6,6,28,6,6,6,6,6,6,6,6,6,6,6,6,6,6,2,
2,6,28,28,28,28,28,28,28,28,28,28,28,28,28,28,28,28,28,28,28,28,28,28,28,28,28,28,28,28,6,2,
2,6,6,6,6,6,6,6,6,6,6,6,6,6,6,6,28,6,6,6,6,6,6,6,6,6,6,6,6,6,6,2,
2,6,6,6,6,6,6,6,6,6,6,6,6,6,6,6,28,6,6,6,6,6,6,6,6,6,6,6,6,6,6,2,
2,6,6,6,6,6,6,6,6,6,6,6,6,6,6,6,28,6,6,6,6,6,6,6,6,6,6,6,6,6,6,2,
2,6,6,6,6,6,6,6,6,6,6,6,6,6,6,6,6,6,6,6,6,6,6,6,6,6,6,6,6,6,6,2,
2,2,2,2,2,2,2,2,2,2,2,2,2,2,2,2,2,2,2,2,2,2,2,2,2,2,2,2,2,2,2,2
  </data>
 </layer>
</map>
