<?xml version="1.0" encoding="UTF-8"?>
<map version="1.10" tiledversion="1.10.2" orientation="orthogonal" renderorder="right-down" width="64" height="64" tilewidth="64" tileheight="32" infinite="0" nextlayerid="2" nextobjectid="1">
 <tileset firstgid="1" name="ciudad" tilewidth="16" tileheight="16" tilecount="24" columns="6">
  <image source="../textures/ciudad_tileset.png" width="96" height="64"/>
  <tile id="1">
   <properties>
    <property name="collision" type="bool" value="true"/>
   </properties>
  </tile>
  <tile id="3">
   <properties>
    <property name="collision" type="bool" value="true"/>
   </properties>
  </tile>
  <tile id="6">
   <properties>
    <property name="collision" type="bool" value="true"/>
   </properties>
  </tile>
  <tile id="7">
   <properties>
    <property name="collision" type="bool" value="true"/>
   </properties>
  </tile>
  <tile id="8">
   <properties>
    <property name="collision" type="bool" value="true"/>
   </properties>
  </tile>
  <tile id="9">
   <properties>
    <property name="collision" type="bool" value="true"/>
   </properties>
  </tile>
  <tile id="10">
   <properties>
    <property name="collision" type="bool" value="true"/>
   </properties>
  </tile>
  <tile id="11">
   <properties>
    <property name="collision" type="bool" value="true"/>
   </properties>
  </tile>
  <tile id="12">
   <properties>
    <property name="collision" type="bool" value="true"/>
   </properties>
  </tile>
  <tile id="13">
   <properties>
    <property name="collision" type="bool" value="true"/>
   </properties>
  </tile>
  <tile id="14">
   <properties>
    <property name="collision" type="bool" value="true"/>
   </properties>
  </tile>
  <tile id="15">
   <properties>
    <property name="collision" type="bool" value="true"/>
   </properties>
  </tile>
  <tile id="16">
   <properties>
    <property name="collision" type="bool" value="true"/>
   </properties>
  </tile>
  <tile id="17">
   <properties>
    <property name="collision" type="bool" value="true"/>
   </properties>
  </tile>
  <tile id="18">
   <properties>
    <property name="collision" type="bool" value="true"/>
   </properties>
  </tile>
  <tile id="19">
   <properties>
    <property name="collision" type="bool" value="true"/>
   </properties>
  </tile>
 </tileset>
 <layer id="1" name="suelo" width="64" height="64">
  <data encoding="csv">
2,2,2,2,2,2,2,2,2,2,2,2,2,2,2,2,2,2,2,2,2,2,2,2,2,2,2,2,2,2,2,2,23,2,2,2,2,2,2,2,2,2,2,2,2,2,2,2,2,2,2,2,2,2,2,2,2,2,2,2,2,2,2,2,
2,7,7,7,7,7,7,7,7,7,7,7,1,1,11,11,11,11,11,11,11,11,11,11,11,11,1,1,8,8,8,8,8,8,8,8,8,8,8,8,1,1,9,9,9,9,9,9,9,9,9,9,9,9,1,1,16,16,16,16,16,1,1,2,
2,7,7,7,7,7,7,7,7,7,7,7,1,1,11,11,11,11,11,11,11,11,11,11,11,11,1,1,8,8,8,8,8,8,8,8,8,8,8,8,1,1,9,9,9,9,9,9,9,9,9,9,9,9,1,1,16,16,16,16,16,1,1,2,
2,7,7,7,7,7,7,7,7,7,7,7,1,1,11,11,11,11,11,11,11,11,11,11,11,11,1,1,8,8,8,8,8,8,8,8,8,8,8,8,1,1,9,9,9,9,9,9,9,9,9,9,9,9,1,1,16,16,16,16,16,1,1,2,
2,7,7,7,7,7,7,7,7,7,7,7,1,1,11,11,11,11,11,11,11,11,11,11,11,11,1,1,8,8,8,8,8,8,8,8,8,8,8,8,1,1,9,9,9,9,9,9,9,9,9,9,9,9,1,1,16,16,16,16,16,1,1,2,
2,7,7,7,7,7,7,7,7,7,7,7,1,1,11,11,11,11,11,11,11,11,11,11,11,11,1,1,8,8,8,8,8,8,8,8,8,8,8,8,1,1,9,9,9,9,9,9,9,9,9,9,9,9,1,1,16,16,16,16,16,1,1,2,
2,7,7,7,7,7,7,7,7,7,7,7,1,1,11,11,11,11,11,11,11,11,11,11,11,11,1,1,8,8,8,8,8,8,8,8,8,8,8,8,1,1,9,9,9,9,9,9,9,9,9,9,9,9,1,1,16,16,16,16,16,1,1,2,
2,7,7,7,7,7,7,7,7,7,7,7,1,1,11,11,11,11,11,11,11,11,11,11,11,11,1,1,8,8,8,8,8,8,8,8,8,8,8,8,1,1,9,9,9,9,9,9,9,9,9,9,9,9,1,1,16,16,16,16,16,1,1,2,
2,7,7,7,7,7,7,7,7,7,7,7,1,1,11,11,11,11,11,11,11,11,11,11,11,11,1,1,8,8,8,8,8,8,8,8,8,8,8,8,1,1,9,9,9,9,9,9,9,9,9,9,9,9,1,1,16,16,16,16,16,1,1,2,
2,7,7,7,7,7,7,7,7,7,7,7,1,1,11,11,11,11,11,11,11,11,11,11,11,11,1,1,8,8,8,8,8,8,8,8,8,8,8,8,1,1,9,9,9,9,9,9,9,9,9,9,9,9,1,1,16,16,16,16,16,1,1,2,
2,7,7,7,7,7,7,7,7,7,7,7,1,1,11,11,11,11,11,11,11,11,11,11,11,11,1,1,8,8,8,8,8,8,8,8,8,8,8,8,1,1,9,9,9,9,9,9,9,9,9,9,9,9,1,1,16,16,16,16,16,1,1,2,
2,7,7,7,7,7,23,7,7,7,7,7,1,1,11,11,11,11,11,11,23,11,11,11,11,11,1,1,8,8,8,8,8,8,23,8,8,8,8,8,1,1,9,9,9,9,9,9,23,9,9,9,9,9,1,1,16,16,23,16,16,1,1,2,
2,1,1,1,1,1,1,1,1,1,1,1,1,1,1,1,1,1,1,1,1,1,1,1,1,1,1,1,1,1,1,1,1,1,1,1,1,1,1,1,1,1,1,1,1,1,1,1,1,1,1,1,1,1,1,1,1,1,1,1,1,1,1,2,
2,1,1,1,1,1,1,1,1,1,1,1,1,1,1,1,1,1,1,1,1,1,1,1,1,1,1,1,1,1,1,1,1,1,1,1,1,1,1,1,1,1,1,1,1,1,1,1,1,1,1,1,1,1,1,1,1,1,1,1,1,1,1,2,
2,10,10,10,10,10,10,10,10,10,10,10,1,1,20,20,20,20,20,20,20,20,20,20,20,20,1,1,1,1,1,1,1,1,1,1,1,1,1,1,1,1,17,17,17,17,17,17,17,17,17,17,17,17,1,1,15,15,15,15,15,1,1,2,
2,10,10,10,10,10,10,10,10,10,10,10,1,1,3,3,3,3,3,3,3,3,3,3,3,3,1,1,1,1,1,1,1,1,1,1,1,1,1,1,1,1,17,17,17,17,17,17,17,17,17,17,17,17,1,1,15,15,15,15,15,1,1,2,
2,10,10,10,10,10,10,10,10,10,10,10,1,1,3,3,3,3,3,3,3,3,3,3,3,3,1,1,1,1,1,1,1,1,1,1,1,1,1,1,1,1,17,17,17,17,17,17,17,17,17,17,17,17,1,1,15,15,15,15,15,1,1,2,
2,10,10,10,10,10,10,10,10,10,10,10,1,1,3,3,4,4,4,4,3,3,3,3,3,3,1,1,1,1,1,1,1,1,1,1,1,1,1,1,1,1,17,17,17,17,17,17,17,17,17,17,17,17,1,1,15,15,15,15,15,1,1,2,
2,10,10,10,10,10,10,10,10,10,10,10,1,1,3,3,4,4,4,4,3,3,3,3,3,3,1,1,1,1,1,1,1,1,1,1,1,1,1,1,1,1,17,17,17,17,17,17,17,17,17,17,17,17,1,1,15,15,15,15,15,1,1,2,
2,10,10,10,10,10,10,10,10,10,10,10,1,1,3,3,4,4,4,4,3,3,3,3,3,3,1,1,1,1,1,1,1,1,1,1,1,1,1,1,1,1,17,17,17,17,17,17,17,17,17,17,17,17,1,1,15,15,15,15,15,1,1,2,
2,10,10,10,10,10,10,10,10,10,10,10,1,1,3,3,4,4,4,4,3,3,3,3,3,3,1,1,1,1,1,1,1,1,1,1,1,1,1,1,1,1,17,17,17,17,17,17,17,17,17,17,17,17,1,1,15,15,15,15,15,1,1,2,
2,10,10,10,10,10,10,10,10,10,10,10,1,1,3,3,3,3,3,3,3,3,3,3,3,3,1,1,1,1,1,1,1,1,1,1,1,1,1,1,1,1,17,17,17,17,17,17,17,17,17,17,17,17,1,1,15,15,15,15,15,1,1,2,
2,10,10,10,10,10,10,10,10,10,10,10,1,1,3,3,3,3,3,3,3,3,3,3,3,3,1,1,1,1,1,1,1,1,1,1,1,1,1,1,1,1,17,17,17,17,17,17,17,17,17,17,17,17,1,1,15,15,15,15,15,1,1,2,
2,10,10,10,10,10,10,10,10,10,10,10,1,1,3,3,3,3,3,3,3,3,3,3,3,3,1,1,1,1,1,1,1,1,1,1,1,1,1,1,1,1,17,17,17,17,17,17,17,17,17,17,17,17,1,1,15,15,15,15,15,1,1,2,
2,10,10,10,10,10,10,10,10,10,10,10,1,1,3,3,3,3,3,3,3,3,3,3,3,3,1,1,1,1,1,1,1,1,1,1,1,1,1,1,1,1,17,17,17,17,17,17,17,17,17,17,17,17,1,1,15,15,15,15,15,1,1,2,
2,10,10,10,10,10,23,10,10,10,10,10,1,1,20,20,20,20,20,20,20,20,20,20,20,20,1,1,1,1,1,1,1,1,1,1,1,1,1,1,1,1,17,17,17,17,17,17,23,17,17,17,17,17,1,1,15,15,23,15,15,1,1,2,
2,1,1,1,1,1,1,1,1,1,1,1,1,1,1,1,1,1,1,1,1,1,1,1,1,1,1,1,1,1,1,1,1,1,1,1,1,1,1,1,1,1,1,1,1,1,1,1,1,1,1,1,1,1,1,1,1,1,1,1,1,1,1,2,
2,1,1,1,1,1,1,1,1,1,1,1,1,1,1,1,1,1,1,1,1,1,1,1,1,1,1,1,1,1,1,1,1,1,1,1,1,1,1,1,1,1,1,1,1,1,1,1,1,1,1,1,1,1,1,1,1,1,1,1,1,1,1,2,
2,12,12,12,12,12,12,12,12,12,12,12,1,1,14,14,14,14,14,14,14,14,14,14,14,14,1,1,5,5,5,5,5,5,5,5,5,5,5,5,1,1,18,18,18,18,18,18,18,18,18,18,18,18,1,1,19,19,19,19,19,1,1,2,
2,12,12,12,12,12,12,12,12,12,12,12,1,1,14,14,14,14,14,14,14,14,14,14,14,14,1,1,5,5,5,5,5,5,5,5,5,5,5,5,1,1,18,18,18,18,18,18,18,18,18,18,18,18,1,1,19,19,19,19,19,1,1,2,
2,12,12,21,21,21,21,21,21,21,12,12,1,1,14,14,14,14,14,14,14,14,14,14,14,14,1,1,5,5,5,5,5,5,5,5,5,5,5,5,1,1,18,18,18,18,18,18,18,18,18,18,18,18,1,1,19,19,19,19,19,1,1,2,
2,12,12,21,21,21,21,21,21,21,12,12,1,1,14,14,14,14,14,14,14,14,14,14,14,14,1,1,5,5,5,3,3,3,3,3,3,5,5,5,1,1,18,18,18,18,18,18,18,18,18,18,18,18,1,1,19,19,19,19,19,1,1,2,
23,12,12,21,21,21,21,21,21,21,12,12,1,1,14,14,14,14,14,14,14,14,14,14,14,14,1,1,5,5,5,3,3,3,3,3,3,5,5,5,1,1,18,18,18,18,18,18,18,18,18,18,18,18,1,1,19,19,19,19,19,1,1,23,
2,12,12,21,21,22,22,21,21,21,12,12,1,1,14,14,14,14,14,14,14,14,14,14,14,14,1,1,5,5,5,3,3,4,4,3,3,5,5,5,1,1,18,18,18,18,18,18,18,18,18,18,18,18,1,1,19,19,19,19,19,1,1,2,
2,12,12,21,21,22,22,21,21,21,12,12,1,1,14,14,14,14,14,14,14,14,14,14,14,14,1,1,5,5,5,3,3,4,4,3,3,5,5,5,1,1,18,18,18,18,18,18,18,18,18,18,18,18,1,1,19,19,19,19,19,1,1,2,
2,12,12,21,21,21,21,21,21,21,12,12,1,1,14,14,14,14,14,14,14,14,14,14,14,14,1,1,5,5,5,3,3,3,3,3,3,5,5,5,1,1,18,18,18,18,18,18,18,18,18,18,18,18,1,1,19,19,19,19,19,1,1,2,
2,12,12,21,21,21,21,21,21,21,12,12,1,1,14,14,14,14,14,14,14,14,14,14,14,14,1,1,5,5,5,3,3,3,3,3,3,5,5,5,1,1,18,18,18,18,18,18,18,18,18,18,18,18,1,1,19,19,19,19,19,1,1,2,
2,12,12,21,21,21,21,21,21,21,12,12,1,1,14,14,14,14,14,14,14,14,14,14,14,14,1,1,5,5,5,5,5,5,5,5,5,5,5,5,1,1,18,18,18,18,18,18,18,18,18,18,18,18,1,1,19,19,19,19,19,1,1,2,
2,12,12,12,12,12,12,12,12,12,12,12,1,1,14,14,14,14,14,14,14,14,14,14,14,14,1,1,5,5,5,5,5,5,5,5,5,5,5,5,1,1,18,18,18,18,18,18,18,18,18,18,18,18,1,1,19,19,19,19,19,1,1,2,
2,12,12,12,12,12,23,12,12,12,12,12,1,1,14,14,14,14,14,14,23,14,14,14,14,14,1,1,5,5,5,5,5,5,5,5,5,5,5,5,1,1,18,18,18,18,18,18,23,18,18,18,18,18,1,1,19,19,23,19,19,1,1,2,
2,1,1,1,1,1,1,1,1,1,1,1,1,1,1,1,1,1,1,1,1,1,1,1,1,1,1,1,1,1,1,1,1,1,1,1,1,1,1,1,1,1,1,1,1,1,1,1,1,1,1,1,1,1,1,1,1,1,1,1,1,1,1,2,
2,1,1,1,1,1,1,1,1,1,1,1,1,1,1,1,1,1,1,1,1,1,1,1,1,1,1,1,1,1,1,1,1,1,1,1,1,1,1,1,1,1,1,1,1,1,1,1,1,1,1,1,1,1,1,1,1,1,1,1,1,1,1,2,
2,14,14,14,14,14,14,14,14,14,14,14,1,1,18,18,18,18,18,18,18,18,18,18,18,18,1,1,20,20,20,20,20,20,20,20,20,20,20,20,1,1,15,15,15,15,15,15,15,15,15,15,15,15,1,1,17,17,17,17,17,1,1,2,
2,14,14,14,14,14,14,14,14,14,14,14,1,1,18,18,18,18,18,18,18,18,18,18,18,18,1,1,3,3,3,3,3,3,3,3,3,3,3,3,1,1,15,15,15,15,15,15,15,15,15,15,15,15,1,1,17,17,17,17,17,1,1,2,
2,14,14,14,14,14,14,14,14,14,14,14,1,1,18,18,18,18,18,18,18,18,18,18,18,18,1,1,3,3,3,3,3,3,3,3,3,3,3,3,1,1,15,15,15,15,15,15,15,15,15,15,15,15,1,1,17,17,17,17,17,1,1,2,
2,14,14,14,14,14,14,14,14,14,14,14,1,1,18,18,18,18,18,18,18,18,18,18,18,18,1,1,3,3,3,3,3,3,3,3,3,3,3,3,1,1,15,15,15,15,15,15,15,15,15,15,15,15,1,1,17,17,17,17,17,1,1,2,
2,14,14,14,14,14,14,14,14,14,14,14,1,1,18,18,18,18,18,18,18,18,18,18,18,18,1,1,3,3,3,3,3,3,3,3,3,3,3,3,1,1,15,15,15,15,15,15,15,15,15,15,15,15,1,1,17,17,17,17,17,1,1,2,
2,14,14,14,14,14,14,14,14,14,14,14,1,1,18,18,18,18,18,18,18,18,18,18,18,18,1,1,3,3,3,3,3,3,3,3,3,3,3,3,1,1,15,15,15,15,15,15,15,15,15,15,15,15,1,1,17,17,17,17,17,1,1,2,
2,14,14,14,14,14,14,14,14,14,14,14,1,1,18,18,18,18,18,18,18,18,18,18,18,18,1,1,3,3,3,3,3,3,3,3,3,3,3,3,1,1,15,15,15,15,15,15,15,15,15,15,15,15,1,1,17,17,17,17,17,1,1,2,
2,14,14,14,14,14,14,14,14,14,14,14,1,1,18,18,18,18,18,18,18,18,18,18,18,18,1,1,3,3,3,3,3,3,3,3,3,3,3,3,1,1,15,15,15,15,15,15,15,15,15,15,15,15,1,1,17,17,17,17,17,1,1,2,
2,14,14,14,14,14,14,14,14,14,14,14,1,1,18,18,18,18,18,18,18,18,18,18,18,18,1,1,3,3,3,3,3,3,3,3,3,3,3,3,1,1,15,15,15,15,15,15,15,15,15,15,15,15,1,1,17,17,17,17,17,1,1,2,
2,14,14,14,14,14,14,14,14,14,14,14,1,1,18,18,18,18,18,18,18,18,18,18,18,18,1,1,3,3,3,3,3,3,3,3,3,3,3,3,1,1,15,15,15,15,15,15,15,15,15,15,15,15,1,1,17,17,17,17,17,1,1,2,
2,14,14,14,14,14,14,14,14,14,14,14,1,1,18,18,18,18,18,18,18,18,18,18,18,18,1,1,3,3,3,3,3,3,3,3,3,3,3,3,1,1,15,15,15,15,15,15,15,15,15,15,15,15,1,1,17,17,17,17,17,1,1,2,
2,14,14,14,14,14,23,14,14,14,14,14,1,1,18,18,18,18,18,18,23,18,18,18,18,18,1,1,20,20,20,20,20,20,20,20,20,20,20,20,1,1,15,15,15,15,15,15,23,15,15,15,15,15,1,1,17,17,23,17,17,1,1,2,
2,1,1,1,1,1,1,1,1,1,1,1,1,1,1,1,1,1,1,1,1,1,1,1,1,1,1,1,1,1,1,1,1,1,1,1,1,1,1,1,1,1,1,1,1,1,1,1,1,1,1,1,1,1,1,1,1,1,1,1,1,1,1,2,
2,1,1,1,1,1,1,1,1,1,1,1,1,1,1,1,1,1,1,1,1,1,1,1,1,1,1,1,1,1,1,1,1,1,1,1,1,1,1,1,1,1,1,1,1,1,1,1,1,1,1,1,1,1,1,1,1,1,1,1,1,1,1,2,
2,20,3,3,3,3,3,3,3,3,3,3,1,1,19,19,19,19,19,19,19,19,19,19,19,19,1,1,14,14,14,14,14,14,14,14,14,14,14,14,1,1,18,18,18,18,18,18,18,18,18,18,18,18,1,1,3,3,3,3,3,1,1,2,
2,20,3,3,3,3,3,3,3,3,3,3,1,1,19,19,19,19,19,19,19,19,19,19,19,19,1,1,14,14,14,14,14,14,14,14,14,14,14,14,1,1,18,18,18,18,18,18,18,18,18,18,18,18,1,1,3,3,3,3,3,1,1,2,
2,20,3,3,3,3,3,3,3,3,3,3,1,1,19,19,19,19,19,19,19,19,19,19,19,19,1,1,14,14,14,14,14,14,14,14,14,14,14,14,1,1,18,18,18,18,18,18,18,18,18,18,18,18,1,1,3,3,3,3,3,1,1,2,
2,20,3,3,3,3,3,3,3,3,3,3,1,1,19,19,19,19,19,19,19,19,19,19,19,19,1,1,14,14,14,14,14,14,14,14,14,14,14,14,1,1,18,18,18,18,18,18,18,18,18,18,18,18,1,1,3,3,3,3,3,1,1,2,
2,20,3,3,3,3,3,3,3,3,3,3,1,1,19,19,19,19,19,19,23,19,19,19,19,19,1,1,14,14,14,14,14,14,23,14,14,14,14,14,1,1,18,18,18,18,18,18,23,18,18,18,18,18,1,1,3,3,3,3,3,1,1,2,
2,1,1,1,1,1,1,1,1,1,1,1,1,1,1,1,1,1,1,1,1,1,1,1,1,1,1,1,1,1,1,1,1,1,1,1,1,1,1,1,1,1,1,1,1,1,1,1,1,1,1,1,1,1,1,1,1,1,1,1,1,1,1,2,
2,1,1,1,1,1,1,1,1,1,1,1,1,1,1,1,1,1,1,1,1,1,1,1,1,1,1,1,1,1,1,1,1,1,1,1,1,1,1,1,1,1,1,1,1,1,1,1,1,1,1,1,1,1,1,1,1,1,1,1,1,1,1,2,
2,2,2,2,2,2,2,2,2,2,2,2,2,2,2,2,2,2,2,2,2,2,2,2,2,2,2,2,2,2,2,2,23,2,2,2,2,2,2,2,2,2,2,2,2,2,2,2,2,2,2,2,2,2,2,2,2,2,2,2,2,2,2,2
</data>
 </layer>
</map>
