<?xml version="1.0" encoding="UTF-8"?>
<!-- GENERADO por tools/gen_ciudad.py — no editar a mano.
     Boundington - Barrio Militar, Pico Dragon y la Barriada. Boundington, 757 del Despertar Elemental (1981 b.f.). -->
<map version="1.10" tiledversion="1.10.2" orientation="orthogonal" renderorder="right-down" width="32" height="64" tilewidth="64" tileheight="32" infinite="0" nextlayerid="2" nextobjectid="1">
 <tileset firstgid="1" name="ciudad" tilewidth="16" tileheight="16" tilecount="36" columns="6">
  <image source="../textures/ciudad_tileset.png" width="96" height="96"/>
  <tile id="1">
   <properties>
    <property name="collision" type="bool" value="true"/>
   </properties>
  </tile>
  <tile id="3">
   <properties>
    <property name="collision" type="bool" value="true"/>
   </properties>
  </tile>
  <tile id="6">
   <properties>
    <property name="collision" type="bool" value="true"/>
   </properties>
  </tile>
  <tile id="7">
   <properties>
    <property name="collision" type="bool" value="true"/>
   </properties>
  </tile>
  <tile id="8">
   <properties>
    <property name="collision" type="bool" value="true"/>
   </properties>
  </tile>
  <tile id="9">
   <properties>
    <property name="collision" type="bool" value="true"/>
   </properties>
  </tile>
  <tile id="10">
   <properties>
    <property name="collision" type="bool" value="true"/>
   </properties>
  </tile>
  <tile id="11">
   <properties>
    <property name="collision" type="bool" value="true"/>
   </properties>
  </tile>
  <tile id="12">
   <properties>
    <property name="collision" type="bool" value="true"/>
   </properties>
  </tile>
  <tile id="13">
   <properties>
    <property name="collision" type="bool" value="true"/>
   </properties>
  </tile>
  <tile id="14">
   <properties>
    <property name="collision" type="bool" value="true"/>
   </properties>
  </tile>
  <tile id="15">
   <properties>
    <property name="collision" type="bool" value="true"/>
   </properties>
  </tile>
  <tile id="16">
   <properties>
    <property name="collision" type="bool" value="true"/>
   </properties>
  </tile>
  <tile id="17">
   <properties>
    <property name="collision" type="bool" value="true"/>
   </properties>
  </tile>
  <tile id="18">
   <properties>
    <property name="collision" type="bool" value="true"/>
   </properties>
  </tile>
  <tile id="19">
   <properties>
    <property name="collision" type="bool" value="true"/>
   </properties>
  </tile>
  <tile id="24">
   <properties>
    <property name="collision" type="bool" value="true"/>
   </properties>
  </tile>
  <tile id="25">
   <properties>
    <property name="collision" type="bool" value="true"/>
   </properties>
  </tile>
  <tile id="26">
   <properties>
    <property name="collision" type="bool" value="true"/>
   </properties>
  </tile>
  <tile id="28">
   <properties>
    <property name="collision" type="bool" value="true"/>
   </properties>
  </tile>
  <tile id="32">
   <properties>
    <property name="collision" type="bool" value="true"/>
   </properties>
  </tile>
  <tile id="35">
   <properties>
    <property name="collision" type="bool" value="true"/>
   </properties>
  </tile>
 </tileset>
 <layer id="1" name="suelo" width="32" height="64">
  <data encoding="csv">
2,2,2,2,2,2,2,2,2,2,2,2,2,2,2,2,2,2,2,2,2,2,2,2,2,2,2,2,2,2,2,2,
2,24,24,24,24,24,24,24,24,24,24,24,24,24,24,24,1,24,24,24,24,24,24,24,24,24,24,24,24,24,24,2,
2,24,24,24,24,24,24,24,24,24,24,24,24,24,24,24,1,24,24,24,24,24,24,24,24,24,24,24,24,24,24,2,
2,24,24,24,24,24,24,24,24,24,24,24,24,24,24,24,1,24,24,24,24,24,24,24,24,24,24,24,24,24,24,2,
2,24,24,24,24,24,24,24,24,24,24,24,24,24,24,24,1,20,6,6,6,6,6,6,6,6,6,6,6,24,24,2,
2,24,24,13,13,13,13,13,13,13,13,13,13,13,13,13,1,24,6,6,6,6,6,6,6,6,6,6,6,24,24,2,
2,24,24,13,13,13,13,13,13,13,13,13,13,13,13,13,1,20,6,6,6,6,6,6,6,6,6,6,6,24,24,2,
2,24,24,13,13,13,13,13,13,13,13,13,13,13,13,13,1,24,6,6,6,6,6,6,6,6,6,6,6,24,24,2,
2,24,24,13,13,13,13,13,13,13,13,13,13,13,13,13,1,20,6,6,6,6,6,6,6,6,6,6,6,24,24,2,
2,24,24,13,13,13,13,13,13,13,13,13,13,13,13,13,1,24,6,6,6,6,6,6,6,6,6,6,6,24,24,2,
2,24,24,13,13,13,13,13,13,13,13,13,13,13,13,13,1,20,6,6,6,6,6,6,6,6,6,6,6,24,24,2,
2,24,24,13,13,13,13,13,13,13,13,13,13,13,13,13,1,24,6,6,6,6,6,6,6,6,6,6,6,24,24,2,
2,24,24,13,13,13,13,13,13,13,13,13,13,13,13,13,1,20,6,6,6,6,6,6,6,6,6,6,6,24,24,2,
2,24,24,13,13,13,13,13,13,13,13,13,13,13,13,13,1,24,6,6,6,6,6,6,6,6,6,6,6,24,24,2,
2,24,24,13,13,13,13,13,13,23,13,13,13,13,13,13,1,20,6,6,6,6,6,6,6,6,6,6,6,24,24,2,
2,24,24,24,24,24,24,24,24,24,24,24,24,24,24,24,1,24,6,6,6,6,6,6,6,6,6,6,6,24,24,2,
2,24,24,24,24,24,24,24,24,24,24,24,24,24,24,24,1,20,6,6,6,6,6,6,6,6,6,6,6,24,24,2,
2,24,24,24,24,24,24,24,24,24,24,24,24,24,24,24,1,24,24,24,24,24,24,24,24,24,24,24,24,24,24,2,
2,1,1,1,1,1,1,1,1,1,1,1,1,1,1,1,1,1,1,1,1,1,1,1,1,1,1,1,1,1,1,2,
2,24,24,24,24,24,24,24,24,24,24,24,24,24,24,24,1,24,24,24,24,24,24,24,24,24,24,24,24,24,24,2,
2,24,24,24,24,24,24,24,24,24,24,24,24,24,24,24,1,24,25,25,24,25,25,24,25,25,24,25,25,24,24,2,
2,24,24,13,13,13,13,13,13,13,13,13,13,24,24,24,1,24,25,25,24,25,25,24,25,25,24,25,25,24,24,2,
2,24,24,13,13,13,13,13,13,13,13,13,13,24,24,24,1,24,25,25,24,25,25,24,25,25,24,25,25,24,24,2,
2,24,24,13,13,13,13,13,13,13,13,13,13,24,24,24,1,24,25,25,24,25,25,24,25,25,24,25,25,24,24,2,
2,24,24,13,13,13,13,13,13,13,13,13,13,24,24,24,1,24,25,25,24,25,25,24,25,25,24,25,25,24,24,2,
2,24,24,13,13,13,13,13,13,13,13,13,13,24,24,24,1,24,25,25,24,25,25,24,25,25,24,25,25,24,24,2,
2,24,24,13,13,13,13,13,13,13,13,13,13,24,24,24,1,24,24,24,24,24,24,24,24,24,24,24,24,24,24,2,
2,24,24,13,13,13,13,13,23,13,13,13,13,24,24,24,1,24,24,24,24,24,24,24,24,24,24,24,24,24,24,2,
2,1,1,1,1,1,1,1,1,1,1,1,1,1,1,1,1,1,1,1,1,1,1,1,1,1,1,1,1,1,1,2,
2,24,24,24,24,24,24,24,24,24,24,24,24,24,24,24,1,24,24,24,24,24,24,24,24,24,24,24,24,24,24,2,
2,24,24,24,24,24,24,24,24,24,24,24,24,24,24,24,1,24,24,24,24,24,24,24,24,24,24,24,24,24,24,2,
2,20,20,20,20,20,20,20,20,20,20,20,1,20,20,20,20,20,20,20,20,20,20,20,20,20,20,20,20,20,20,2,
2,32,32,32,32,32,32,32,32,32,32,32,1,32,32,34,34,34,34,34,32,32,32,32,32,32,32,32,32,32,32,23,
2,36,32,32,32,32,32,33,33,33,32,32,32,1,32,33,33,33,32,32,32,32,32,32,32,32,32,32,32,32,32,2,
2,36,32,32,32,32,32,33,33,33,32,32,1,32,32,33,33,33,32,34,34,34,34,32,32,34,34,34,34,32,32,2,
2,36,32,33,33,33,32,32,32,32,32,1,33,32,34,34,34,34,32,33,33,32,32,32,32,33,33,32,32,32,32,2,
2,36,32,33,33,33,32,32,32,32,32,33,1,32,33,33,32,32,32,33,33,32,32,32,32,33,33,32,33,33,32,2,
2,36,32,33,33,33,32,32,32,32,32,1,32,32,33,33,32,32,32,33,33,32,32,32,32,33,33,32,33,33,32,2,
2,36,32,32,32,32,32,33,33,32,1,33,33,32,33,33,32,32,32,33,33,32,32,32,32,33,33,32,33,33,32,2,
2,36,32,32,32,32,32,33,33,32,33,1,33,32,33,33,32,32,32,32,32,32,32,32,32,32,32,32,33,33,32,2,
2,36,32,32,32,32,32,33,33,32,32,1,32,34,34,34,34,32,32,32,32,32,32,33,33,33,32,32,32,32,32,2,
2,36,32,34,34,34,34,33,33,32,33,1,32,33,33,32,32,33,33,32,32,32,32,33,33,33,32,33,33,33,32,2,
2,36,32,33,33,32,32,32,32,32,33,1,32,33,33,32,32,33,33,32,32,32,32,34,34,34,34,33,33,33,32,2,
2,36,32,33,33,32,32,32,32,32,1,32,32,33,33,32,32,33,33,32,32,32,3,3,33,32,32,33,33,33,32,2,
2,36,32,33,33,32,33,33,32,32,1,32,32,32,32,32,32,32,32,32,32,32,3,3,33,32,32,33,33,33,32,2,
2,36,32,32,32,32,33,33,32,32,32,1,34,34,34,34,32,32,32,32,32,32,32,32,32,32,32,32,32,32,32,2,
2,36,33,33,32,32,32,32,32,32,32,1,33,33,32,32,32,32,32,32,32,32,32,32,32,32,33,33,33,32,32,2,
2,35,1,1,1,1,1,1,1,1,1,1,1,33,32,32,32,32,32,32,33,33,33,32,32,32,33,33,33,32,32,2,
2,36,32,32,32,32,32,32,33,33,32,32,33,33,32,32,32,32,32,32,33,33,33,32,32,32,33,33,33,32,32,2,
2,36,32,32,32,32,32,32,32,32,32,32,33,33,32,32,32,32,32,32,33,33,33,32,32,32,32,32,32,32,32,2,
2,36,33,33,32,32,32,32,32,32,32,32,32,32,32,32,32,33,33,32,33,33,33,32,32,32,32,32,32,32,32,2,
2,36,33,33,32,32,32,32,32,33,33,32,32,32,32,32,32,33,33,32,32,32,32,32,32,32,32,32,34,34,34,2,
2,36,33,33,32,32,32,32,32,33,33,32,32,32,32,32,32,32,32,32,32,32,32,32,32,32,32,32,33,33,32,2,
2,36,32,32,32,34,34,34,34,33,33,32,33,33,32,32,32,32,32,32,32,32,32,33,33,33,32,32,33,33,32,2,
2,36,32,32,32,33,33,32,32,32,32,32,33,33,32,34,34,34,34,32,32,32,32,33,33,33,32,32,33,33,32,2,
2,36,32,32,32,33,33,32,33,33,33,32,33,33,32,33,33,32,32,32,32,32,32,32,32,32,32,32,32,32,32,2,
2,36,32,32,32,33,33,32,33,33,33,32,32,32,32,33,33,32,33,33,32,32,32,32,32,32,32,32,32,32,32,2,
2,36,32,32,32,32,32,32,32,32,32,32,32,32,32,33,33,32,33,33,32,32,32,3,3,33,32,32,32,32,32,2,
2,36,32,33,33,33,32,32,32,33,33,32,32,32,32,33,33,32,33,33,32,32,32,3,3,33,32,33,33,33,32,2,
2,36,32,33,33,33,32,32,32,33,33,32,32,32,32,32,32,32,33,33,32,32,32,32,33,33,32,33,33,33,32,2,
2,36,32,32,32,32,32,32,32,32,32,32,32,32,32,32,32,32,32,32,32,32,32,32,32,32,32,33,33,33,32,2,
2,36,32,32,32,32,32,32,32,32,32,32,32,32,32,32,32,32,32,32,32,32,32,32,32,32,32,32,32,32,32,2,
2,32,32,32,32,32,32,32,32,32,32,32,32,32,32,32,32,32,32,32,32,32,32,32,32,32,32,32,32,32,32,2,
2,2,2,2,2,2,2,2,2,2,2,2,2,2,2,2,2,2,2,2,2,2,2,2,2,2,2,2,2,2,2,2
</data>
 </layer>
</map>
