<?xml version="1.0" encoding="UTF-8"?>
<!-- GENERADO por tools/gen_ciudad.py — no editar a mano.
     Dhin Thyraxion - Ciudad Caldera. Boundington, 757 del Despertar Elemental (1981 b.f.). -->
<map version="1.10" tiledversion="1.10.2" orientation="orthogonal" renderorder="right-down" width="56" height="56" tilewidth="64" tileheight="32" infinite="0" nextlayerid="2" nextobjectid="1">
 <tileset firstgid="1" name="ciudad" tilewidth="16" tileheight="16" tilecount="36" columns="6">
  <image source="../textures/ciudad_tileset.png" width="96" height="96"/>
  <tile id="1">
   <properties>
    <property name="collision" type="bool" value="true"/>
   </properties>
  </tile>
  <tile id="3">
   <properties>
    <property name="collision" type="bool" value="true"/>
   </properties>
  </tile>
  <tile id="6">
   <properties>
    <property name="collision" type="bool" value="true"/>
   </properties>
  </tile>
  <tile id="7">
   <properties>
    <property name="collision" type="bool" value="true"/>
   </properties>
  </tile>
  <tile id="8">
   <properties>
    <property name="collision" type="bool" value="true"/>
   </properties>
  </tile>
  <tile id="9">
   <properties>
    <property name="collision" type="bool" value="true"/>
   </properties>
  </tile>
  <tile id="10">
   <properties>
    <property name="collision" type="bool" value="true"/>
   </properties>
  </tile>
  <tile id="11">
   <properties>
    <property name="collision" type="bool" value="true"/>
   </properties>
  </tile>
  <tile id="12">
   <properties>
    <property name="collision" type="bool" value="true"/>
   </properties>
  </tile>
  <tile id="13">
   <properties>
    <property name="collision" type="bool" value="true"/>
   </properties>
  </tile>
  <tile id="14">
   <properties>
    <property name="collision" type="bool" value="true"/>
   </properties>
  </tile>
  <tile id="15">
   <properties>
    <property name="collision" type="bool" value="true"/>
   </properties>
  </tile>
  <tile id="16">
   <properties>
    <property name="collision" type="bool" value="true"/>
   </properties>
  </tile>
  <tile id="17">
   <properties>
    <property name="collision" type="bool" value="true"/>
   </properties>
  </tile>
  <tile id="18">
   <properties>
    <property name="collision" type="bool" value="true"/>
   </properties>
  </tile>
  <tile id="19">
   <properties>
    <property name="collision" type="bool" value="true"/>
   </properties>
  </tile>
  <tile id="24">
   <properties>
    <property name="collision" type="bool" value="true"/>
   </properties>
  </tile>
  <tile id="25">
   <properties>
    <property name="collision" type="bool" value="true"/>
   </properties>
  </tile>
  <tile id="26">
   <properties>
    <property name="collision" type="bool" value="true"/>
   </properties>
  </tile>
  <tile id="28">
   <properties>
    <property name="collision" type="bool" value="true"/>
   </properties>
  </tile>
  <tile id="32">
   <properties>
    <property name="collision" type="bool" value="true"/>
   </properties>
  </tile>
  <tile id="35">
   <properties>
    <property name="collision" type="bool" value="true"/>
   </properties>
  </tile>
 </tileset>
 <layer id="1" name="suelo" width="56" height="56">
  <data encoding="csv">
2,2,2,2,2,2,2,2,2,2,2,2,2,2,2,2,2,2,2,2,2,2,2,2,2,2,2,2,2,2,2,2,2,2,2,2,2,2,2,2,2,2,2,2,2,2,2,2,2,2,2,2,2,2,2,2,
2,24,24,24,24,24,24,24,24,24,24,24,24,24,24,24,24,24,24,24,24,24,24,24,24,24,24,24,24,24,24,24,24,24,24,24,24,24,24,24,24,24,24,24,24,24,24,24,24,24,24,24,24,24,24,2,
2,24,24,24,24,24,24,24,24,24,24,24,24,24,24,24,24,24,24,24,24,24,24,24,24,24,24,24,24,24,24,24,24,24,24,24,24,24,24,24,24,24,24,24,24,24,24,24,24,24,24,24,24,24,24,2,
2,24,24,24,24,24,24,24,24,24,24,24,24,24,24,24,24,24,24,24,24,24,24,24,24,24,24,24,24,24,24,24,24,24,24,24,24,24,24,24,24,24,24,24,24,24,24,24,24,24,24,24,24,24,24,2,
2,24,24,24,29,29,29,29,29,29,29,29,29,29,29,29,24,24,24,24,24,24,4,4,4,35,35,35,35,35,35,4,4,4,24,24,24,24,24,24,24,24,24,24,24,24,24,24,24,24,24,24,24,24,24,2,
2,24,24,24,29,29,29,29,29,29,29,29,29,29,29,29,24,24,24,24,24,24,4,4,4,35,35,35,35,35,35,4,4,4,24,24,24,24,24,24,24,24,25,25,25,25,25,25,25,24,24,24,24,24,24,2,
2,24,24,24,29,29,29,29,29,29,29,29,29,29,29,29,24,24,24,24,24,24,4,4,4,35,35,35,35,35,35,4,4,4,24,24,24,24,24,24,24,24,25,25,25,25,25,25,25,24,24,24,24,24,24,2,
2,24,24,24,29,29,29,29,29,29,29,29,29,29,29,29,24,24,24,24,24,24,4,4,4,35,35,35,35,35,35,4,4,4,24,24,24,24,24,24,24,24,25,25,25,25,25,25,25,24,24,24,24,24,24,2,
2,24,24,24,29,29,29,29,29,29,29,29,29,29,29,29,24,24,24,24,24,24,4,4,4,35,35,35,35,35,35,4,4,4,24,24,24,24,24,24,24,24,25,25,25,25,25,25,25,24,24,24,24,24,24,2,
2,24,24,24,29,29,29,29,29,29,23,29,29,29,29,29,24,24,24,24,24,24,4,4,4,35,35,35,35,35,35,4,4,4,24,24,24,24,24,24,24,24,25,25,25,25,25,25,25,24,24,24,24,24,24,2,
2,24,24,28,28,28,28,28,28,28,28,28,28,28,28,28,28,28,28,28,28,28,28,28,28,28,28,28,28,28,28,28,28,28,28,28,28,28,28,28,28,28,28,28,28,28,28,28,28,28,28,28,28,24,24,2,
2,24,24,28,28,28,28,28,28,28,28,28,28,28,28,28,28,28,28,28,28,28,28,28,28,28,28,28,28,28,28,28,28,28,28,28,28,28,28,28,28,28,28,28,28,28,28,28,28,28,28,28,28,24,24,2,
2,24,24,28,28,28,28,28,28,28,28,28,28,28,28,28,28,28,28,28,28,28,28,28,28,28,28,28,28,28,28,28,28,28,28,28,28,28,28,28,28,28,28,28,28,28,28,28,28,28,28,28,28,24,24,2,
2,24,24,24,24,24,24,24,24,24,24,24,24,24,24,24,24,24,24,24,24,24,4,4,4,35,35,35,35,35,35,4,4,4,24,24,24,24,24,24,24,24,24,24,24,24,24,24,24,24,24,24,24,24,24,2,
2,24,24,24,24,24,24,24,24,24,24,24,24,24,24,24,24,24,24,24,24,24,4,4,4,35,35,35,35,35,35,4,4,4,24,24,24,24,24,24,24,24,24,24,24,24,24,24,24,24,24,24,24,24,24,2,
2,24,24,24,24,24,24,24,24,24,24,24,24,24,24,24,24,24,24,24,24,24,4,4,4,35,35,35,35,35,35,4,4,4,24,24,24,24,24,24,24,24,24,24,24,24,24,24,24,24,24,24,24,24,24,2,
2,24,24,24,24,24,24,24,24,24,24,24,24,24,24,24,24,24,24,24,24,24,4,4,4,35,35,35,35,35,35,4,4,4,24,24,24,24,24,24,24,24,24,24,24,24,24,24,24,24,24,24,24,24,24,2,
2,24,24,24,24,24,25,25,25,25,25,25,25,24,24,24,24,24,24,24,24,24,4,4,4,35,35,35,35,35,35,4,4,4,24,24,24,24,24,24,24,24,25,25,25,25,25,25,25,24,24,24,24,24,24,2,
2,24,24,24,24,24,25,25,25,25,25,25,25,24,24,24,24,24,24,24,24,24,4,4,4,35,35,35,35,35,35,4,4,4,24,24,24,24,24,24,24,24,25,25,25,25,25,25,25,24,24,24,24,24,24,2,
2,24,24,24,24,24,25,25,25,25,25,25,25,24,24,24,24,24,24,24,24,24,4,4,4,35,35,35,35,35,35,4,4,4,24,24,24,24,24,24,24,24,25,25,25,25,25,25,25,24,24,24,24,24,24,2,
2,24,24,24,24,24,25,25,25,25,25,25,25,24,24,24,24,24,24,24,24,24,4,4,4,35,35,35,35,35,35,4,4,4,24,24,24,24,24,24,24,24,25,25,25,25,25,25,25,24,24,24,24,24,24,2,
2,24,24,24,24,24,25,25,25,25,25,25,25,24,24,24,24,24,24,24,24,24,4,4,4,35,35,35,35,35,35,4,4,4,24,24,24,24,24,24,24,24,25,25,25,25,25,25,25,24,24,24,24,24,24,2,
2,24,24,24,24,24,24,24,24,24,24,24,24,24,24,24,24,24,24,24,24,24,4,4,4,35,35,35,35,35,35,4,4,4,24,24,24,24,24,24,24,24,24,24,24,24,24,24,24,24,24,24,24,24,24,2,
2,24,24,24,24,24,24,24,24,24,24,24,24,24,24,24,24,24,24,24,24,24,4,4,4,35,35,35,35,35,35,4,4,4,24,24,24,24,24,24,24,24,24,24,24,24,24,24,24,24,24,24,24,24,24,2,
2,24,24,24,24,24,24,24,24,24,24,24,24,24,24,24,24,24,24,24,24,24,4,4,4,35,35,35,35,35,35,4,4,4,24,24,24,24,24,27,27,27,27,27,27,27,27,27,27,27,27,24,24,24,24,2,
2,24,24,24,24,24,24,24,24,24,24,24,24,24,24,24,24,24,24,24,24,24,4,4,4,35,35,35,35,35,35,4,4,4,24,24,24,24,24,27,27,27,27,27,27,27,27,27,27,27,27,24,24,24,24,2,
2,24,24,24,24,24,24,24,24,24,24,24,24,24,24,24,24,24,24,24,24,24,4,4,4,35,35,35,35,35,35,4,4,4,24,24,24,24,24,27,27,27,27,27,27,27,27,27,27,27,27,24,24,24,24,2,
2,24,24,5,5,5,5,5,5,5,5,5,5,5,5,5,5,5,5,5,5,5,5,5,5,5,5,5,5,5,5,5,5,5,5,5,5,5,5,27,27,27,27,27,27,27,27,27,27,27,27,5,5,24,24,2,
2,24,24,5,5,5,5,5,5,5,5,5,5,5,5,5,5,5,5,5,5,5,5,5,5,5,5,5,5,5,5,5,5,5,5,5,5,5,5,27,27,27,27,27,27,27,27,27,27,27,27,5,5,24,24,2,
2,24,24,5,5,5,5,5,5,5,5,5,5,5,5,5,5,5,5,5,5,5,5,5,5,5,5,5,5,5,5,5,5,5,5,5,5,5,5,27,27,27,27,27,27,27,27,27,27,27,27,5,5,24,24,2,
2,24,24,24,24,24,24,24,24,24,24,24,24,24,24,24,24,24,24,24,24,24,4,4,4,35,35,35,35,35,35,4,4,4,24,24,24,24,24,27,27,27,27,27,27,23,27,27,27,27,27,24,24,24,24,2,
2,24,24,24,24,24,24,24,24,24,24,24,24,24,24,24,24,24,24,24,24,24,4,4,4,35,35,35,35,35,35,4,4,4,24,24,24,24,24,24,24,24,24,24,24,24,24,24,24,24,24,24,24,24,24,2,
2,24,24,24,24,24,24,24,24,24,24,24,24,24,24,24,24,24,24,24,24,24,4,4,4,35,35,35,35,35,35,4,4,4,24,24,24,24,24,24,24,24,24,24,24,24,24,24,24,24,24,24,24,24,24,2,
2,24,24,24,24,24,24,24,24,24,24,24,24,24,24,24,24,24,24,24,24,24,4,4,4,35,35,35,35,35,35,4,4,4,24,24,24,24,24,24,24,24,24,24,24,24,24,24,24,24,24,24,24,24,24,2,
2,24,24,24,24,24,25,25,25,25,25,25,25,24,24,24,24,24,24,24,24,24,4,4,4,35,35,35,35,35,35,4,4,4,24,24,24,24,24,24,24,24,25,25,25,25,25,25,25,24,24,24,24,24,24,2,
2,24,24,24,24,24,25,25,25,25,25,25,25,24,24,24,24,24,24,24,24,24,4,4,4,35,35,35,35,35,35,4,4,4,24,24,24,24,24,24,24,24,25,25,25,25,25,25,25,24,24,24,24,24,24,2,
2,24,24,24,24,24,25,25,25,25,25,25,25,24,24,24,24,24,24,24,24,24,4,4,4,35,35,35,35,35,35,4,4,4,24,24,24,24,24,24,24,24,25,25,25,25,25,25,25,24,24,24,24,24,24,2,
2,24,24,24,24,24,25,25,25,25,25,25,25,24,24,24,24,24,24,24,24,24,4,4,4,35,35,35,35,35,35,4,4,4,24,24,24,24,24,24,24,24,25,25,25,25,25,25,25,24,24,24,24,24,24,2,
2,24,24,24,24,24,25,25,25,25,25,25,25,24,24,24,24,24,24,24,24,24,4,4,4,35,35,35,35,35,35,4,4,4,24,24,24,24,24,24,24,24,25,25,25,25,25,25,25,24,24,24,24,24,24,2,
2,24,24,24,24,24,24,24,24,24,24,24,24,24,24,24,24,24,24,24,24,24,4,4,4,35,35,35,35,35,35,4,4,4,24,24,24,24,24,24,24,24,24,24,24,24,24,24,24,24,24,24,24,24,24,2,
2,24,24,24,24,24,24,24,24,24,24,24,24,24,24,24,24,24,24,24,24,24,4,4,4,35,35,35,35,35,35,4,4,4,24,24,24,24,24,24,24,24,24,24,24,24,24,24,24,24,24,24,24,24,24,2,
2,24,24,24,24,24,24,24,24,24,24,24,24,24,24,24,24,24,24,24,24,24,4,4,4,35,35,35,35,35,35,4,4,4,24,24,24,24,24,24,24,24,24,24,24,24,24,24,24,24,24,24,24,24,24,2,
2,24,24,24,24,24,24,24,24,24,24,24,24,24,24,24,24,24,24,24,24,24,4,4,4,35,35,35,35,35,35,4,4,4,24,24,24,24,24,24,24,24,24,24,24,24,24,24,24,24,24,24,24,24,24,2,
2,24,24,1,1,1,1,1,1,1,1,1,1,1,1,1,1,1,1,1,1,1,1,1,1,1,1,1,1,1,1,1,1,1,1,1,1,1,1,1,1,1,1,1,1,1,1,1,1,1,1,1,1,24,24,2,
2,24,24,1,1,1,1,1,1,1,1,1,1,1,1,1,1,1,1,1,1,1,1,1,1,1,1,1,1,1,1,1,1,1,1,1,1,1,1,1,1,1,1,1,1,1,1,1,1,1,1,1,1,24,24,2,
2,24,24,1,1,1,1,1,1,1,1,1,1,1,1,1,1,1,1,1,27,27,27,27,27,27,27,27,27,27,27,27,27,27,27,27,1,1,1,1,1,1,1,1,1,1,1,1,1,1,1,1,1,24,24,2,
2,24,24,24,24,24,24,24,24,24,24,24,24,24,24,24,24,24,24,24,27,27,27,27,27,27,27,27,27,27,27,27,27,27,27,27,24,24,24,24,24,24,24,24,24,24,24,24,24,24,24,24,24,24,24,2,
2,24,24,24,24,24,24,24,24,24,24,24,24,24,24,24,24,24,24,24,27,27,27,27,27,27,27,27,27,27,27,27,27,27,27,27,24,24,24,24,24,24,24,24,24,24,24,24,24,24,24,24,24,24,24,2,
2,24,24,24,24,24,24,24,24,24,24,24,24,24,24,24,24,24,24,24,27,27,27,27,27,27,27,27,27,27,27,27,27,27,27,27,24,24,24,24,24,24,24,24,24,24,24,24,24,24,24,24,24,24,24,2,
2,24,24,24,24,24,24,24,24,24,24,24,24,24,24,24,24,24,24,24,27,27,27,27,27,27,27,27,27,27,27,27,27,27,27,27,24,24,24,24,24,24,24,24,24,24,24,24,24,24,24,24,24,24,24,2,
2,24,24,24,24,24,24,24,24,24,24,24,24,24,24,24,24,24,24,24,27,27,27,27,27,27,27,27,23,27,27,27,27,27,27,27,24,24,24,24,24,24,24,24,24,24,24,24,24,24,24,24,24,24,24,2,
2,24,24,24,24,24,24,24,24,24,24,24,24,24,24,24,24,24,24,24,24,24,4,4,4,35,35,35,35,35,35,4,4,4,24,24,24,24,24,24,24,24,24,24,24,24,24,24,24,24,24,24,24,24,24,2,
2,24,24,24,24,24,24,24,24,24,24,24,24,24,24,24,24,24,24,24,24,24,24,24,24,24,24,24,24,24,24,24,24,24,24,24,24,24,24,24,24,24,24,24,24,24,24,24,24,24,24,24,24,24,24,2,
2,24,24,24,24,24,24,24,24,24,24,24,24,24,24,24,24,24,24,24,24,24,24,24,24,24,24,24,24,24,24,24,24,24,24,24,24,24,24,24,24,24,24,24,24,24,24,24,24,24,24,24,24,24,24,2,
2,24,24,24,24,24,24,24,24,24,24,24,24,24,24,24,24,24,24,24,24,24,24,24,24,24,24,24,24,24,24,24,24,24,24,24,24,24,24,24,24,24,24,24,24,24,24,24,24,24,24,24,24,24,24,2,
2,2,2,2,2,2,2,2,2,2,2,2,2,2,2,2,2,2,2,2,2,2,2,2,2,2,2,2,23,2,2,2,2,2,2,2,2,2,2,2,2,2,2,2,2,2,2,2,2,2,2,2,2,2,2,2
</data>
 </layer>
</map>
