<?xml version="1.0" encoding="UTF-8"?>
<!-- GENERADO por tools/gen_ciudad.py — no editar a mano.
     Taurengrad - Plaza y Anillos. Boundington, 757 del Despertar Elemental (1981 b.f.). -->
<map version="1.10" tiledversion="1.10.2" orientation="orthogonal" renderorder="right-down" width="64" height="64" tilewidth="64" tileheight="32" infinite="0" nextlayerid="2" nextobjectid="1">
 <tileset firstgid="1" name="terreno_mundo" tilewidth="128" tileheight="64" tilecount="76" columns="8">
  <image source="../textures/terreno_mundo.png" width="1024" height="640"/>
  <tile id="13">
   <properties>
    <property name="collision" type="bool" value="true"/>
   </properties>
  </tile>
  <tile id="30">
   <properties>
    <property name="collision" type="bool" value="true"/>
   </properties>
  </tile>
  <tile id="35">
   <properties>
    <property name="collision" type="bool" value="true"/>
   </properties>
  </tile>
  <tile id="41">
   <properties>
    <property name="collision" type="bool" value="true"/>
   </properties>
  </tile>
  <tile id="46">
   <properties>
    <property name="collision" type="bool" value="true"/>
   </properties>
  </tile>
  <tile id="47">
   <properties>
    <property name="collision" type="bool" value="true"/>
   </properties>
  </tile>
  <tile id="48">
   <properties>
    <property name="collision" type="bool" value="true"/>
   </properties>
  </tile>
  <tile id="49">
   <properties>
    <property name="collision" type="bool" value="true"/>
   </properties>
  </tile>
  <tile id="50">
   <properties>
    <property name="collision" type="bool" value="true"/>
   </properties>
  </tile>
  <tile id="51">
   <properties>
    <property name="collision" type="bool" value="true"/>
   </properties>
  </tile>
  <tile id="52">
   <properties>
    <property name="collision" type="bool" value="true"/>
   </properties>
  </tile>
  <tile id="53">
   <properties>
    <property name="collision" type="bool" value="true"/>
   </properties>
  </tile>
  <tile id="54">
   <properties>
    <property name="collision" type="bool" value="true"/>
   </properties>
  </tile>
  <tile id="55">
   <properties>
    <property name="collision" type="bool" value="true"/>
   </properties>
  </tile>
  <tile id="56">
   <properties>
    <property name="collision" type="bool" value="true"/>
   </properties>
  </tile>
  <tile id="57">
   <properties>
    <property name="collision" type="bool" value="true"/>
   </properties>
  </tile>
  <tile id="58">
   <properties>
    <property name="collision" type="bool" value="true"/>
   </properties>
  </tile>
  <tile id="59">
   <properties>
    <property name="collision" type="bool" value="true"/>
   </properties>
  </tile>
  <tile id="64">
   <properties>
    <property name="collision" type="bool" value="true"/>
   </properties>
  </tile>
  <tile id="65">
   <properties>
    <property name="collision" type="bool" value="true"/>
   </properties>
  </tile>
  <tile id="66">
   <properties>
    <property name="collision" type="bool" value="true"/>
   </properties>
  </tile>
  <tile id="68">
   <properties>
    <property name="collision" type="bool" value="true"/>
   </properties>
  </tile>
  <tile id="72">
   <properties>
    <property name="collision" type="bool" value="true"/>
   </properties>
  </tile>
 </tileset>
 <layer id="1" name="suelo" width="64" height="64">
  <data encoding="csv">
42,42,42,42,42,42,42,42,42,42,42,42,42,42,42,42,42,42,42,42,42,42,42,42,42,42,42,42,42,42,42,42,42,42,42,42,42,42,42,42,42,42,42,42,42,42,42,42,42,42,42,42,42,42,42,42,42,42,42,42,42,42,42,42,42,17,17,17,17,17,17,17,17,17,17,17,17,17,17,17,17,17,17,17,17,17,17,17,17,17,17,17,17,17,25,17,17,25,17,17,17,17,17,17,17,17,17,17,17,17,17,17,17,17,17,17,17,17,17,17,17,17,17,17,17,17,17,42,42,17,17,17,17,17,17,17,17,17,17,17,17,17,17,17,17,17,17,17,17,17,17,17,17,17,17,17,17,17,25,17,17,25,17,17,17,17,17,17,17,17,17,17,17,17,17,17,17,17,17,17,17,17,17,17,17,17,17,17,17,17,17,42,42,17,17,17,17,17,17,17,17,17,17,17,17,17,17,17,17,17,17,17,17,17,17,17,17,17,17,17,17,17,25,17,17,25,17,17,17,17,17,17,17,17,17,17,17,17,17,17,17,17,17,17,17,17,17,17,17,17,17,17,17,17,17,42,42,17,17,17,17,17,17,17,17,17,17,17,17,17,17,17,17,17,17,17,17,17,17,17,17,17,17,17,17,17,25,17,17,25,17,17,17,17,17,17,17,17,17,17,17,17,17,17,17,17,17,17,17,17,17,17,17,17,17,17,17,17,17,42,42,17,17,17,17,17,17,17,17,17,17,17,17,17,17,17,17,17,17,17,17,17,17,17,17,17,17,17,17,17,25,17,17,25,17,17,17,17,17,17,17,17,17,17,17,17,17,17,17,17,17,17,17,17,17,17,17,17,17,17,17,17,17,42,42,17,17,17,65,65,65,65,17,17,17,17,65,65,65,65,17,17,17,17,65,65,65,65,17,17,17,17,65,65,65,65,17,25,17,17,65,65,65,65,17,17,17,17,65,65,65,65,17,17,17,17,65,65,65,65,17,17,17,17,17,17,17,42,42,17,17,17,65,65,65,65,17,17,17,17,65,65,65,65,17,17,17,17,65,65,65,65,17,17,17,17,65,65,65,65,17,25,17,17,65,65,65,65,17,17,17,17,65,65,65,65,17,17,17,17,65,65,65,65,17,17,17,17,17,17,17,42,42,17,17,17,65,65,65,65,35,35,35,35,65,65,65,65,35,35,35,35,65,65,65,65,35,35,35,35,65,65,65,65,35,35,35,35,65,65,65,65,35,35,35,35,65,65,65,65,35,35,35,35,65,65,65,65,17,17,17,17,17,17,17,42,42,17,17,17,17,17,17,17,17,17,17,17,17,17,17,17,17,17,17,17,17,17,17,17,17,17,17,17,17,17,25,17,17,25,17,17,17,17,17,17,17,17,17,17,17,17,17,17,17,17,17,17,17,17,17,17,17,17,17,17,17,17,17,42,42,17,17,17,17,17,17,17,17,17,17,17,17,17,17,17,17,17,17,17,17,17,17,17,17,17,17,67,67,67,67,67,67,67,67,67,67,67,17,17,17,17,17,17,17,17,17,17,17,17,17,17,17,17,17,17,17,17,17,17,17,17,17,42,42,17,17,17,17,17,17,17,17,17,17,17,17,17,17,17,17,17,17,17,17,17,17,17,17,17,17,67,67,67,67,67,67,67,67,67,67,67,17,17,17,17,17,17,17,17,17,17,17,17,17,17,17,17,17,17,17,17,17,17,17,17,17,42,42,17,17,17,17,17,17,17,17,17,17,17,17,17,17,17,17,17,17,17,17,17,17,17,17,17,17,67,67,67,67,67,67,67,67,67,67,67,17,17,17,17,17,17,17,17,17,17,17,17,17,17,17,17,17,17,17,17,17,17,17,17,17,42,42,17,17,17,17,17,17,17,17,17,17,17,17,17,17,17,17,17,17,17,17,17,17,17,17,17,17,67,67,67,67,67,67,67,67,67,67,67,17,17,17,17,17,17,17,17,17,17,17,17,17,17,17,17,17,17,17,17,17,17,17,17,17,42,42,17,17,17,17,17,17,17,17,17,17,17,17,17,17,17,17,17,17,17,17,17,17,17,17,17,17,67,67,67,67,67,67,67,67,67,67,67,17,17,17,17,17,17,17,17,17,17,17,17,17,17,17,17,17,17,17,17,17,17,17,17,17,42,42,17,17,17,65,65,65,65,17,17,17,17,65,65,65,65,17,17,17,17,65,65,65,65,17,17,17,67,67,67,67,67,67,67,67,67,67,67,65,65,17,17,17,17,65,65,65,65,17,17,17,17,65,65,65,65,17,17,17,17,17,17,17,42,42,17,17,17,65,65,65,65,17,17,17,17,65,65,65,65,17,17,17,17,65,65,65,65,17,17,17,67,67,67,67,67,18,67,67,67,67,67,65,65,17,17,17,17,65,65,65,65,17,17,17,17,65,65,65,65,17,17,17,17,17,17,17,42,42,17,17,17,65,65,65,65,17,17,17,17,65,65,65,65,17,35,35,35,65,65,65,65,35,35,35,35,65,65,65,65,35,35,35,35,65,65,65,65,35,35,35,35,65,65,65,65,17,17,17,17,65,65,65,65,17,17,17,17,17,17,17,42,42,17,17,17,17,17,17,17,17,17,17,17,17,17,17,17,17,17,17,17,17,17,17,17,17,17,17,17,17,17,25,17,17,25,17,17,17,17,17,17,17,17,17,17,17,17,17,17,17,17,17,17,17,17,17,17,17,17,17,17,17,17,17,42,42,17,17,17,17,17,17,17,17,17,17,17,17,17,17,17,17,17,17,17,17,17,17,17,17,17,17,17,17,17,25,17,17,25,17,17,17,17,17,17,17,17,17,17,17,17,17,17,17,17,17,17,17,17,17,17,17,17,17,17,17,17,17,42,42,17,17,17,17,17,17,17,17,17,17,17,17,17,17,17,17,17,17,17,17,17,17,17,17,17,17,17,17,17,25,17,17,25,17,17,17,17,17,17,17,17,17,17,17,17,17,17,17,17,17,17,17,17,17,17,17,17,17,17,17,17,17,42,42,17,17,17,17,17,17,17,17,17,17,17,17,17,17,17,17,17,17,17,17,17,17,17,17,17,17,17,17,17,25,17,17,25,17,17,17,17,17,17,17,17,17,17,17,17,17,17,17,17,17,17,17,17,17,17,17,17,17,17,17,17,17,42,42,17,17,17,17,17,17,17,17,17,17,17,17,17,17,17,17,17,17,17,17,17,17,20,20,20,20,20,20,20,20,20,20,20,20,20,20,20,20,20,20,17,17,17,17,17,17,17,17,17,17,17,17,17,17,17,17,17,17,17,17,17,17,42,42,17,17,17,17,17,17,17,17,17,17,17,17,17,17,17,17,17,17,17,17,17,17,20,20,20,20,20,20,20,20,20,20,20,20,20,20,20,20,20,20,17,17,17,17,17,17,17,17,17,17,17,17,17,17,17,17,17,17,17,17,17,17,42,42,17,17,17,17,17,17,17,17,17,17,17,17,17,17,17,17,17,17,17,17,17,17,20,20,20,20,20,20,20,20,20,20,20,20,20,20,20,20,20,20,17,17,17,17,17,17,17,17,17,17,17,17,17,17,17,17,17,17,17,17,17,17,42,42,17,17,17,17,17,17,17,17,17,17,17,17,17,17,17,17,17,17,17,17,17,17,20,20,20,17,17,17,17,17,17,17,17,17,17,17,17,20,20,20,17,17,17,17,17,17,17,17,17,17,17,17,17,17,17,17,17,17,17,17,17,17,42,42,17,17,17,17,17,17,17,17,17,17,17,17,17,17,17,17,17,17,17,17,17,17,20,20,20,17,17,17,17,17,17,17,17,17,17,17,17,20,20,20,17,17,17,17,17,17,17,17,17,17,17,17,17,17,17,17,17,17,17,17,17,17,42,42,17,17,17,17,17,17,17,17,17,17,17,17,17,17,17,17,17,17,17,17,17,17,20,20,20,17,17,17,17,17,17,17,17,17,17,17,17,20,20,20,17,17,17,17,17,17,17,17,17,17,17,17,17,17,17,17,17,17,17,17,17,17,42,42,17,17,17,17,17,17,17,17,17,17,17,17,17,17,17,17,17,17,17,17,17,17,20,20,20,17,17,17,17,17,17,17,17,17,17,17,17,20,20,20,17,17,17,17,17,17,17,17,17,17,17,17,17,17,17,17,17,17,17,17,17,17,42,42,17,17,17,17,17,17,17,17,17,17,17,17,17,17,17,17,17,17,17,17,17,17,20,20,20,17,17,17,17,17,17,17,17,17,17,17,17,20,20,20,17,17,17,17,17,17,17,17,17,17,17,17,17,17,17,17,17,17,17,17,17,17,42,42,25,25,25,25,25,25,25,25,25,25,25,25,25,25,25,25,25,25,25,25,25,25,20,20,20,17,17,17,17,17,17,17,17,17,17,17,17,20,20,20,25,25,25,25,25,25,25,25,25,25,25,25,25,25,25,25,25,25,25,25,25,25,42,42,17,17,17,17,17,17,17,17,17,17,17,17,17,17,17,17,17,17,17,17,17,17,20,20,20,17,17,17,17,17,17,17,17,17,17,17,17,20,20,20,17,17,17,17,17,17,17,17,17,17,17,17,17,17,17,17,17,17,17,17,17,17,42,42,17,17,17,17,17,17,17,17,17,17,17,17,17,17,17,17,17,17,17,17,17,17,20,20,20,17,17,17,17,17,17,17,17,17,17,17,17,20,20,20,17,17,17,17,17,17,17,17,17,17,17,17,17,17,17,17,17,17,17,17,17,17,42,42,25,25,25,25,25,25,25,25,25,25,25,25,25,25,25,25,25,25,25,25,25,25,20,20,20,17,17,17,17,17,17,17,17,17,17,17,17,20,20,20,25,25,25,25,25,25,25,25,25,25,25,25,25,25,25,25,25,25,25,25,25,25,42,42,17,17,17,17,17,17,17,17,17,17,17,17,17,17,17,17,17,17,17,17,17,17,20,20,20,17,17,17,17,17,17,17,17,17,17,17,17,20,20,20,17,17,17,17,17,17,17,17,17,17,17,17,17,17,17,17,17,17,17,17,17,17,42,42,17,17,17,17,17,17,17,17,17,17,17,17,17,17,17,17,17,17,17,17,17,17,20,20,20,17,17,17,17,17,17,17,17,17,17,17,17,20,20,20,17,17,17,17,17,17,17,17,17,17,17,17,17,17,17,17,17,17,17,17,17,17,42,42,17,17,17,17,17,17,17,17,17,17,17,17,17,17,17,17,17,17,17,17,17,17,20,20,20,20,20,20,20,20,20,20,20,20,20,20,20,20,20,20,17,17,17,17,17,17,17,17,17,17,17,17,17,17,17,17,17,17,17,17,17,17,42,42,17,17,17,17,17,17,17,17,17,17,17,17,17,17,17,17,17,17,17,17,17,17,20,20,20,20,20,20,20,20,20,20,20,20,20,20,20,20,20,20,17,17,17,17,17,17,17,17,17,17,17,17,17,17,17,17,17,17,17,17,17,17,42,42,17,17,17,17,17,17,17,17,17,17,17,17,17,17,17,17,17,17,17,17,17,17,20,20,20,20,20,20,20,20,20,20,20,20,20,20,20,20,20,20,17,17,17,17,17,17,17,17,17,17,17,17,17,17,17,17,17,17,17,17,17,17,42,42,17,17,17,17,17,17,17,17,17,17,17,17,17,17,17,17,17,17,17,17,17,17,17,17,17,17,17,17,17,25,17,17,25,17,17,17,17,17,17,17,17,17,17,17,17,17,17,17,17,17,17,17,17,17,17,17,17,17,17,17,17,17,42,42,17,17,17,65,65,65,65,17,17,17,17,65,65,65,65,17,17,17,17,65,65,65,65,17,17,17,17,65,65,65,65,17,25,17,17,65,65,65,65,17,17,17,17,65,65,65,65,17,17,17,17,65,65,65,65,17,17,17,17,17,17,17,42,42,17,17,17,65,65,65,65,17,17,17,17,65,65,65,65,17,17,17,17,65,65,65,65,17,17,17,17,65,65,65,65,17,25,17,17,65,65,65,65,17,17,17,17,65,65,65,65,17,17,17,17,65,65,65,65,17,17,17,17,17,17,17,42,42,17,17,17,65,65,65,65,17,17,17,17,65,65,65,65,17,17,17,17,65,65,65,65,17,17,17,17,65,65,65,65,17,25,17,17,65,65,65,65,17,17,17,17,65,65,65,65,17,17,17,17,65,65,65,65,17,17,17,17,17,17,17,42,42,17,17,17,17,17,17,69,69,69,69,69,69,69,69,69,17,17,17,17,17,17,17,17,17,17,17,17,17,17,25,17,17,25,17,17,17,17,17,17,17,17,17,17,17,17,17,69,69,69,69,69,69,69,69,69,17,17,17,17,17,17,17,42,42,17,17,17,17,17,17,69,69,69,69,69,69,69,69,69,17,17,17,17,17,17,17,17,17,17,17,17,17,17,25,17,17,25,17,17,17,17,17,17,17,17,17,17,17,17,17,69,69,69,69,69,69,69,69,69,17,17,17,17,17,17,17,42,42,17,17,17,17,17,17,69,69,69,69,69,69,69,69,69,17,17,17,17,17,17,17,17,17,17,17,17,17,17,25,17,17,25,17,17,17,17,17,17,17,17,17,17,17,17,17,69,69,69,69,69,69,69,69,69,17,17,17,17,17,17,17,42,42,17,17,17,17,17,17,69,69,69,69,69,69,69,69,69,17,35,35,35,35,35,35,35,35,35,35,35,35,35,35,35,35,35,35,35,35,35,35,35,35,35,35,35,35,35,35,69,69,69,69,69,69,69,69,69,17,17,17,17,17,17,17,42,42,17,17,17,17,17,17,69,69,69,69,69,69,69,69,69,17,17,17,17,17,17,17,17,17,17,17,17,17,17,25,17,17,25,17,17,17,17,17,17,17,17,17,17,17,17,17,69,69,69,69,69,69,69,69,69,17,17,17,17,17,17,17,42,42,17,17,17,17,17,17,69,69,69,69,18,69,69,69,69,17,17,17,17,17,17,17,17,17,17,17,17,17,17,25,17,17,25,17,17,17,17,17,17,17,17,17,17,17,17,17,69,69,69,69,18,69,69,69,69,17,17,17,17,17,17,17,42,42,17,17,17,17,17,17,17,17,17,17,17,17,17,17,17,17,17,17,17,17,17,17,17,17,17,17,17,17,17,25,17,17,25,17,17,17,17,17,17,17,17,17,17,17,17,17,17,17,17,17,17,17,17,17,17,17,17,17,17,17,17,17,42,42,17,17,17,17,17,17,17,17,17,17,17,17,17,17,17,17,17,17,17,17,17,17,17,17,17,17,17,17,17,25,17,17,25,17,17,17,17,17,17,17,17,17,17,17,17,17,17,17,17,17,17,17,17,17,17,17,17,17,17,17,17,17,42,42,17,17,17,65,65,65,65,17,17,17,17,65,65,65,65,17,17,17,17,65,65,65,65,17,17,17,17,65,65,65,65,17,25,17,17,65,65,65,65,17,17,17,17,65,65,65,65,17,17,17,17,65,65,65,65,17,17,17,17,17,17,17,42,42,17,17,17,65,65,65,65,17,17,17,17,65,65,65,65,17,17,17,17,65,65,65,65,17,17,17,17,65,65,65,65,17,25,17,17,65,65,65,65,17,17,17,17,65,65,65,65,17,17,17,17,65,65,65,65,17,17,17,17,17,17,17,42,42,17,17,17,65,65,65,65,17,17,17,17,65,65,65,65,17,17,17,17,65,65,65,65,17,17,17,17,65,65,65,65,17,25,17,17,65,65,65,65,17,17,17,17,65,65,65,65,17,17,17,17,65,65,65,65,17,17,17,17,17,17,17,42,42,17,17,17,17,17,17,17,17,17,17,17,17,17,17,17,17,17,17,17,17,17,17,17,17,17,17,17,17,17,25,17,17,25,17,17,17,17,17,17,17,17,17,17,17,17,17,17,17,17,17,17,17,17,17,17,17,17,17,17,17,17,17,42,42,17,17,17,17,17,17,17,35,35,35,35,35,35,35,35,35,35,35,35,35,35,35,35,35,35,35,35,35,35,35,35,35,35,35,35,35,35,35,35,35,35,35,35,35,35,35,35,35,35,35,35,35,35,35,35,17,17,17,17,17,17,17,42,42,17,17,17,17,17,17,17,17,17,17,17,17,17,17,17,17,17,17,17,17,17,17,17,17,17,17,17,17,17,25,17,17,25,17,17,17,17,17,17,17,17,17,17,17,17,17,17,17,17,17,17,17,17,17,17,17,17,17,17,17,17,17,42,42,17,17,17,17,17,17,17,17,17,17,17,17,17,17,17,17,17,17,17,17,17,17,17,17,17,17,17,17,17,25,17,17,25,17,17,17,17,17,17,17,17,17,17,17,17,17,17,17,17,17,17,17,17,17,17,17,17,17,17,17,17,17,42,42,17,17,17,17,17,17,17,17,17,17,17,17,17,17,17,17,17,17,17,17,17,17,17,17,17,17,17,17,17,25,17,17,25,17,17,17,17,17,17,17,17,17,17,17,17,17,17,17,17,17,17,17,17,17,17,17,17,17,17,17,17,17,42,42,17,17,17,17,17,17,17,17,17,17,17,17,17,17,17,17,17,17,17,17,17,17,17,17,17,17,17,17,17,25,17,17,25,17,17,17,17,17,17,17,17,17,17,17,17,17,17,17,17,17,17,17,17,17,17,17,17,17,17,17,17,17,42,42,17,17,17,17,17,17,17,17,17,17,17,17,17,17,17,17,17,17,17,17,17,17,17,17,17,17,17,17,17,25,17,17,25,17,17,17,17,17,17,17,17,17,17,17,17,17,17,17,17,17,17,17,17,17,17,17,17,17,17,17,17,17,42,42,17,17,17,17,17,17,17,17,17,17,17,17,17,17,17,17,17,17,17,17,17,17,17,17,17,17,17,17,17,25,17,17,25,17,17,17,17,17,17,17,17,17,17,17,17,17,17,17,17,17,17,17,17,17,17,17,17,17,17,17,17,17,42,42,17,17,17,17,17,17,17,17,17,17,17,17,17,17,17,17,17,17,17,17,17,17,17,17,17,17,17,17,17,25,17,17,25,17,17,17,17,17,17,17,17,17,17,17,17,17,17,17,17,17,17,17,17,17,17,17,17,17,17,17,17,17,42,42,42,42,42,42,42,42,42,42,42,42,42,42,42,42,42,42,42,42,42,42,42,42,42,42,42,42,42,42,42,42,42,18,42,42,42,42,42,42,42,42,42,42,42,42,42,42,42,42,42,42,42,42,42,42,42,42,42,42,42,42,42,42,42
</data>
 </layer>
</map>
