<?xml version="1.0" encoding="UTF-8"?>
<map version="1.10" tiledversion="1.10.2" orientation="orthogonal" renderorder="right-down" width="13" height="11" tilewidth="64" tileheight="32" infinite="0" nextlayerid="2" nextobjectid="1">
 <tileset firstgid="1" name="ciudad" tilewidth="16" tileheight="16" tilecount="24" columns="6">
  <image source="../textures/ciudad_tileset.png" width="96" height="64"/>
  <tile id="1">
   <properties>
    <property name="collision" type="bool" value="true"/>
   </properties>
  </tile>
  <tile id="3">
   <properties>
    <property name="collision" type="bool" value="true"/>
   </properties>
  </tile>
 </tileset>
 <layer id="1" name="suelo" width="13" height="11">
  <data encoding="csv">
2,2,2,2,2,2,2,2,2,2,2,2,2,
2,24,24,24,24,24,24,24,24,24,24,24,2,
2,24,24,24,24,24,24,24,24,24,24,24,2,
2,24,24,5,5,5,5,5,5,5,24,24,2,
2,24,24,24,24,24,24,24,24,24,24,24,2,
2,24,24,24,24,24,24,24,24,24,24,24,2,
2,24,24,24,24,24,24,24,24,24,24,24,2,
2,24,24,24,24,24,24,24,24,24,24,24,2,
2,24,24,24,24,24,24,24,24,24,24,24,2,
2,24,24,24,24,24,24,24,24,24,24,24,2,
2,2,2,2,2,2,23,2,2,2,2,2,2
</data>
 </layer>
</map>
