<?xml version="1.0" encoding="UTF-8"?>
<!-- Escena de validación: el suelo usa tiles isométricos fuente de 128x64 y el motor los dibuja a 64x32. -->
<map version="1.10" tiledversion="1.10.2" orientation="orthogonal" renderorder="right-down" width="16" height="12" tilewidth="64" tileheight="32" infinite="0" nextlayerid="2" nextobjectid="1">
 <tileset firstgid="1" name="terreno_iso" tilewidth="128" tileheight="64" tilecount="40" columns="8">
  <image source="../textures/terreno_iso.png" width="1024" height="320"/>
  <tile id="13"><properties><property name="collision" type="bool" value="true"/></properties></tile>
  <tile id="30"><properties><property name="collision" type="bool" value="true"/></properties></tile>
  <tile id="35"><properties><property name="collision" type="bool" value="true"/></properties></tile>
 </tileset>
 <layer id="1" name="Plaza" width="16" height="12">
  <data encoding="csv">
18,18,18,18,18,18,18,18,18,18,18,18,18,18,18,18,
18,19,19,19,19,19,19,19,19,19,19,19,19,19,19,18,
18,19,19,19,19,19,19,19,19,19,19,19,19,19,19,18,
18,19,19,19,19,20,20,20,20,19,19,19,19,19,19,18,
18,19,19,19,19,20,19,19,20,19,19,19,19,19,19,18,
18,19,19,19,19,20,19,19,20,19,19,19,19,19,19,18,
18,19,19,19,19,20,20,20,20,19,19,19,19,19,19,18,
18,19,19,19,19,19,19,19,19,19,19,19,19,19,19,18,
18,19,19,19,19,19,19,19,19,19,19,19,19,19,19,18,
18,19,19,19,19,19,19,19,19,19,19,19,19,19,19,18,
18,19,19,19,19,19,19,19,19,19,19,19,19,19,19,18,
18,18,18,18,18,18,18,18,18,18,18,18,18,18,18,18
  </data>
 </layer>
</map>
